(Generated by PartKam Version 0.05)

G20 G90 G40

(Hearts)
G0 Z0.15
T0 M6
G17
M3
G0 X-17.8855 Y11.1763
G1 Z-0.15 F30
G3 X-17.1482 Y11.9585 I-53.6593 J51.3159 F60
G3 X-16.7088 Y12.4388 I-31.1294 J28.9189
G3 X-16.6008 Y12.5591 I-31.5688 J28.4385
G3 X-16.3769 Y12.8128 I-20.0516 J17.9256
G3 X-16.3217 Y12.8763 I-20.2755 J17.672
G3 X-16.1494 Y13.0802 I-8.1764 J7.0816
G3 X-16.062 Y13.1885 I-5.2904 J4.3582
G3 X-16.0068 Y13.2606 I-2.342 J1.8508
G3 X-15.9544 Y13.3355 I-1.3679 J1.015
G3 X-15.938 Y13.3636 I-0.2404 J0.1591
G3 X-15.8657 Y13.5346 I-1.1528 J0.5881
G3 X-15.8033 Y13.7604 I-1.8889 J0.6431
G3 X-15.7665 Y13.9862 I-2.2815 J0.4879
G3 X-15.7497 Y14.2354 I-2.741 J0.3099
G3 X-15.749 Y14.2972 I-2.8055 J0.0618
G3 X-15.7553 Y14.4854 I-2.8062 J0
G3 X-15.7823 Y14.7214 I-2.5385 J-0.1706
G3 X-15.8343 Y14.9599 I-2.2323 J-0.3615
G3 X-15.9004 Y15.1515 I-1.537 J-0.4229
G3 X-16.2024 Y15.6574 I-1.9138 J-0.7996
G3 X-16.6255 Y16.0471 I-1.5404 J-1.2477
G3 X-17.1174 Y16.2926 I-1.1431 J-1.6752
G3 X-17.6637 Y16.399 I-0.6666 J-1.9661
G3 X-18.1 Y16.3781 I-0.1197 J-2.0619
G3 X-18.5179 Y16.2665 I0.3107 J-2.0026
G3 X-18.9209 Y16.0563 I0.724 J-1.8793
G3 X-19.277 Y15.7538 I1.1874 J-1.7584
G1 X-19.6366 Y15.3723
G2 X-19.8232 Y15.3775 I-0.091 J0.0857
G1 X-19.9064 Y15.4763
G1 X-20.0904 Y15.6948
G3 X-20.2374 Y15.8506 I-1.4412 J-1.2127
G3 X-20.7239 Y16.1837 I-1.2942 J-1.3685
G3 X-21.5616 Y16.3916 I-0.932 J-1.9634
G3 X-22.4133 Y16.2565 I-0.0938 J-2.1609
G3 X-23.0806 Y15.825 I0.6496 J-1.7364
G3 X-23.1951 Y15.7004 I1.6006 J-1.5859
G3 X-23.3363 Y15.5247 I2.9765 J-2.5361
G3 X-23.4664 Y15.3413 I2.8992 J-2.195
G3 X-23.5379 Y15.2217 I1.2204 J-0.8104
G3 X-23.6 Y15.0727 I0.7429 J-0.3972
G3 X-23.6588 Y14.8255 I1.849 J-0.5701
G3 X-23.6882 Y14.5812 I2.5221 J-0.4269
G3 X-23.6967 Y14.342 I3.3423 J-0.2392
G3 X-23.6964 Y14.2982 I3.3509 J0
G3 X-23.6809 Y14.0154 I3.3898 J0.0443
G3 X-23.6449 Y13.7654 I2.7048 J0.2622
G3 X-23.5798 Y13.5119 I2.0817 J0.3995
G3 X-23.5118 Y13.3513 I0.9511 J0.308
G3 X-23.4963 Y13.3256 I0.2491 J0.1322
G3 X-23.4457 Y13.2545 I1.4757 J0.9966
G3 X-23.3922 Y13.1851 I2.5178 J1.8865
G3 X-23.3077 Y13.0807 I5.6575 J4.4906
G3 X-23.1357 Y12.877 I8.7745 J7.2346
G3 X-22.8646 Y12.5683 I20.3062 J17.558
G3 X-22.2776 Y11.9241 I30.1005 J26.8427
G3 X-22.1146 Y11.7498 I43.2889 J40.3165
G3 X-21.7708 Y11.3867 I43.1259 J40.4908
G3 X-21.551 Y11.1578 I42.7821 J40.8539
G3 X-20.8121 Y10.4026 I56.1273 J54.1764
G3 X-20.2591 Y9.8551 I30.0859 J29.8378
G3 X-19.9943 Y9.6015 I17.5692 J18.0762
G3 X-19.8407 Y9.4601 I5.6748 J6.011
G3 X-19.762 Y9.3911 I3.0151 J3.3599
G3 X-19.7297 Y9.3643 I0.8654 J1.0106
G3 X-19.6893 Y9.3957 I-0.6162 J0.835
G3 X-19.6037 Y9.468 I-2.1976 J2.6897
G3 X-19.4428 Y9.6132 I-4.1534 J4.7616
G3 X-19.1628 Y9.8802 I-13.5584 J14.5073
G3 X-18.6341 Y10.4051 I-24.013 J24.7105
G3 X-17.8855 Y11.1763 I-50.9938 J50.254
G1 Z-0.3 F30
G3 X-17.1482 Y11.9585 I-53.6593 J51.3159 F60
G3 X-16.7088 Y12.4388 I-31.1294 J28.9189
G3 X-16.6008 Y12.5591 I-31.5688 J28.4385
G3 X-16.3769 Y12.8128 I-20.0516 J17.9256
G3 X-16.3217 Y12.8763 I-20.2755 J17.672
G3 X-16.1494 Y13.0802 I-8.1764 J7.0816
G3 X-16.062 Y13.1885 I-5.2904 J4.3582
G3 X-16.0068 Y13.2606 I-2.342 J1.8508
G3 X-15.9544 Y13.3355 I-1.3679 J1.015
G3 X-15.938 Y13.3636 I-0.2404 J0.1591
G3 X-15.8657 Y13.5346 I-1.1528 J0.5881
G3 X-15.8033 Y13.7604 I-1.8889 J0.6431
G3 X-15.7665 Y13.9862 I-2.2815 J0.4879
G3 X-15.7497 Y14.2354 I-2.741 J0.3099
G3 X-15.749 Y14.2972 I-2.8055 J0.0618
G3 X-15.7553 Y14.4854 I-2.8062 J0
G3 X-15.7823 Y14.7214 I-2.5385 J-0.1706
G3 X-15.8343 Y14.9599 I-2.2323 J-0.3615
G3 X-15.9004 Y15.1515 I-1.537 J-0.4229
G3 X-16.2024 Y15.6574 I-1.9138 J-0.7996
G3 X-16.6255 Y16.0471 I-1.5404 J-1.2477
G3 X-17.1174 Y16.2926 I-1.1431 J-1.6752
G3 X-17.6637 Y16.399 I-0.6666 J-1.9661
G3 X-18.1 Y16.3781 I-0.1197 J-2.0619
G3 X-18.5179 Y16.2665 I0.3107 J-2.0026
G3 X-18.9209 Y16.0563 I0.724 J-1.8793
G3 X-19.277 Y15.7538 I1.1874 J-1.7584
G1 X-19.6366 Y15.3723
G2 X-19.8232 Y15.3775 I-0.091 J0.0857
G1 X-19.9064 Y15.4763
G1 X-20.0904 Y15.6948
G3 X-20.2374 Y15.8506 I-1.4412 J-1.2127
G3 X-20.7239 Y16.1837 I-1.2942 J-1.3685
G3 X-21.5616 Y16.3916 I-0.932 J-1.9634
G3 X-22.4133 Y16.2565 I-0.0938 J-2.1609
G3 X-23.0806 Y15.825 I0.6496 J-1.7364
G3 X-23.1951 Y15.7004 I1.6006 J-1.5859
G3 X-23.3363 Y15.5247 I2.9765 J-2.5361
G3 X-23.4664 Y15.3413 I2.8992 J-2.195
G3 X-23.5379 Y15.2217 I1.2204 J-0.8104
G3 X-23.6 Y15.0727 I0.7429 J-0.3972
G3 X-23.6588 Y14.8255 I1.849 J-0.5701
G3 X-23.6882 Y14.5812 I2.5221 J-0.4269
G3 X-23.6967 Y14.342 I3.3423 J-0.2392
G3 X-23.6964 Y14.2982 I3.3509 J0
G3 X-23.6809 Y14.0154 I3.3898 J0.0443
G3 X-23.6449 Y13.7654 I2.7048 J0.2622
G3 X-23.5798 Y13.5119 I2.0817 J0.3995
G3 X-23.5118 Y13.3513 I0.9511 J0.308
G3 X-23.4963 Y13.3256 I0.2491 J0.1322
G3 X-23.4457 Y13.2545 I1.4757 J0.9966
G3 X-23.3922 Y13.1851 I2.5178 J1.8865
G3 X-23.3077 Y13.0807 I5.6575 J4.4906
G3 X-23.1357 Y12.877 I8.7745 J7.2346
G3 X-22.8646 Y12.5683 I20.3062 J17.558
G3 X-22.2776 Y11.9241 I30.1005 J26.8427
G3 X-22.1146 Y11.7498 I43.2889 J40.3165
G3 X-21.7708 Y11.3867 I43.1259 J40.4908
G3 X-21.551 Y11.1578 I42.7821 J40.8539
G3 X-20.8121 Y10.4026 I56.1273 J54.1764
G3 X-20.2591 Y9.8551 I30.0859 J29.8378
G3 X-19.9943 Y9.6015 I17.5692 J18.0762
G3 X-19.8407 Y9.4601 I5.6748 J6.011
G3 X-19.762 Y9.3911 I3.0151 J3.3599
G3 X-19.7297 Y9.3643 I0.8654 J1.0106
G3 X-19.6893 Y9.3957 I-0.6162 J0.835
G3 X-19.6037 Y9.468 I-2.1976 J2.6897
G3 X-19.4428 Y9.6132 I-4.1534 J4.7616
G3 X-19.1628 Y9.8802 I-13.5584 J14.5073
G3 X-18.6341 Y10.4051 I-24.013 J24.7105
G3 X-17.8855 Y11.1763 I-50.9938 J50.254
G1 Z-0.45 F30
G3 X-17.1482 Y11.9585 I-53.6593 J51.3159 F60
G3 X-16.7088 Y12.4388 I-31.1294 J28.9189
G1 Z-0.3 F30
G3 X-16.6008 Y12.5591 I-31.5688 J28.4385 F60
G3 X-16.3769 Y12.8128 I-20.0516 J17.9256
G1 Z-0.45 F30
G3 X-16.3217 Y12.8763 I-20.2755 J17.672 F60
G3 X-16.1494 Y13.0802 I-8.1764 J7.0816
G3 X-16.062 Y13.1885 I-5.2904 J4.3582
G3 X-16.0068 Y13.2606 I-2.342 J1.8508
G3 X-15.9544 Y13.3355 I-1.3679 J1.015
G3 X-15.938 Y13.3636 I-0.2404 J0.1591
G3 X-15.8657 Y13.5346 I-1.1528 J0.5881
G3 X-15.8033 Y13.7604 I-1.8889 J0.6431
G3 X-15.7665 Y13.9862 I-2.2815 J0.4879
G3 X-15.7497 Y14.2354 I-2.741 J0.3099
G3 X-15.749 Y14.2972 I-2.8055 J0.0618
G3 X-15.7553 Y14.4854 I-2.8062 J0
G3 X-15.7823 Y14.7214 I-2.5385 J-0.1706
G3 X-15.8343 Y14.9599 I-2.2323 J-0.3615
G3 X-15.9004 Y15.1515 I-1.537 J-0.4229
G3 X-16.2024 Y15.6574 I-1.9138 J-0.7996
G3 X-16.6255 Y16.0471 I-1.5404 J-1.2477
G3 X-17.1174 Y16.2926 I-1.1431 J-1.6752
G3 X-17.6637 Y16.399 I-0.6666 J-1.9661
G3 X-18.1 Y16.3781 I-0.1197 J-2.0619
G3 X-18.5179 Y16.2665 I0.3107 J-2.0026
G3 X-18.9209 Y16.0563 I0.724 J-1.8793
G3 X-19.277 Y15.7538 I1.1874 J-1.7584
G1 X-19.6366 Y15.3723
G2 X-19.8232 Y15.3775 I-0.091 J0.0857
G1 X-19.9064 Y15.4763
G1 Z-0.3 F30
G1 X-20.0904 Y15.6948 F60
G3 X-20.2374 Y15.8506 I-1.4412 J-1.2127
G1 Z-0.45 F30
G3 X-20.7239 Y16.1837 I-1.2942 J-1.3685 F60
G3 X-21.5616 Y16.3916 I-0.932 J-1.9634
G3 X-22.4133 Y16.2565 I-0.0938 J-2.1609
G3 X-23.0806 Y15.825 I0.6496 J-1.7364
G3 X-23.1951 Y15.7004 I1.6006 J-1.5859
G3 X-23.3363 Y15.5247 I2.9765 J-2.5361
G3 X-23.4664 Y15.3413 I2.8992 J-2.195
G3 X-23.5379 Y15.2217 I1.2204 J-0.8104
G3 X-23.6 Y15.0727 I0.7429 J-0.3972
G3 X-23.6588 Y14.8255 I1.849 J-0.5701
G3 X-23.6882 Y14.5812 I2.5221 J-0.4269
G3 X-23.6967 Y14.342 I3.3423 J-0.2392
G3 X-23.6964 Y14.2982 I3.3509 J0
G3 X-23.6809 Y14.0154 I3.3898 J0.0443
G3 X-23.6449 Y13.7654 I2.7048 J0.2622
G3 X-23.5798 Y13.5119 I2.0817 J0.3995
G3 X-23.5118 Y13.3513 I0.9511 J0.308
G3 X-23.4963 Y13.3256 I0.2491 J0.1322
G3 X-23.4457 Y13.2545 I1.4757 J0.9966
G3 X-23.3922 Y13.1851 I2.5178 J1.8865
G3 X-23.3077 Y13.0807 I5.6575 J4.4906
G3 X-23.1357 Y12.877 I8.7745 J7.2346
G3 X-22.8646 Y12.5683 I20.3062 J17.558
G3 X-22.2776 Y11.9241 I30.1005 J26.8427
G3 X-22.1146 Y11.7498 I43.2889 J40.3165
G1 Z-0.3 F30
G3 X-21.7708 Y11.3867 I43.1259 J40.4908 F60
G1 Z-0.45 F30
G3 X-21.551 Y11.1578 I42.7821 J40.8539 F60
G3 X-20.8121 Y10.4026 I56.1273 J54.1764
G3 X-20.2591 Y9.8551 I30.0859 J29.8378
G3 X-19.9943 Y9.6015 I17.5692 J18.0762
G3 X-19.8407 Y9.4601 I5.6748 J6.011
G3 X-19.762 Y9.3911 I3.0151 J3.3599
G3 X-19.7297 Y9.3643 I0.8654 J1.0106
G3 X-19.6893 Y9.3957 I-0.6162 J0.835
G3 X-19.6037 Y9.468 I-2.1976 J2.6897
G3 X-19.4428 Y9.6132 I-4.1534 J4.7616
G3 X-19.1628 Y9.8802 I-13.5584 J14.5073
G3 X-18.6341 Y10.4051 I-24.013 J24.7105
G3 X-17.8855 Y11.1763 I-50.9938 J50.254
G1 Z-0.55 F30
G3 X-17.1482 Y11.9585 I-53.6593 J51.3159 F60
G3 X-16.7088 Y12.4388 I-31.1294 J28.9189
G1 Z-0.3 F30
G3 X-16.6008 Y12.5591 I-31.5688 J28.4385 F60
G3 X-16.3769 Y12.8128 I-20.0516 J17.9256
G1 Z-0.55 F30
G3 X-16.3217 Y12.8763 I-20.2755 J17.672 F60
G3 X-16.1494 Y13.0802 I-8.1764 J7.0816
G3 X-16.062 Y13.1885 I-5.2904 J4.3582
G3 X-16.0068 Y13.2606 I-2.342 J1.8508
G3 X-15.9544 Y13.3355 I-1.3679 J1.015
G3 X-15.938 Y13.3636 I-0.2404 J0.1591
G3 X-15.8657 Y13.5346 I-1.1528 J0.5881
G3 X-15.8033 Y13.7604 I-1.8889 J0.6431
G3 X-15.7665 Y13.9862 I-2.2815 J0.4879
G3 X-15.7497 Y14.2354 I-2.741 J0.3099
G3 X-15.749 Y14.2972 I-2.8055 J0.0618
G3 X-15.7553 Y14.4854 I-2.8062 J0
G3 X-15.7823 Y14.7214 I-2.5385 J-0.1706
G3 X-15.8343 Y14.9599 I-2.2323 J-0.3615
G3 X-15.9004 Y15.1515 I-1.537 J-0.4229
G3 X-16.2024 Y15.6574 I-1.9138 J-0.7996
G3 X-16.6255 Y16.0471 I-1.5404 J-1.2477
G3 X-17.1174 Y16.2926 I-1.1431 J-1.6752
G3 X-17.6637 Y16.399 I-0.6666 J-1.9661
G3 X-18.1 Y16.3781 I-0.1197 J-2.0619
G3 X-18.5179 Y16.2665 I0.3107 J-2.0026
G3 X-18.9209 Y16.0563 I0.724 J-1.8793
G3 X-19.277 Y15.7538 I1.1874 J-1.7584
G1 X-19.6366 Y15.3723
G2 X-19.8232 Y15.3775 I-0.091 J0.0857
G1 X-19.9064 Y15.4763
G1 Z-0.3 F30
G1 X-20.0904 Y15.6948 F60
G3 X-20.2374 Y15.8506 I-1.4412 J-1.2127
G1 Z-0.55 F30
G3 X-20.7239 Y16.1837 I-1.2942 J-1.3685 F60
G3 X-21.5616 Y16.3916 I-0.932 J-1.9634
G3 X-22.4133 Y16.2565 I-0.0938 J-2.1609
G3 X-23.0806 Y15.825 I0.6496 J-1.7364
G3 X-23.1951 Y15.7004 I1.6006 J-1.5859
G3 X-23.3363 Y15.5247 I2.9765 J-2.5361
G3 X-23.4664 Y15.3413 I2.8992 J-2.195
G3 X-23.5379 Y15.2217 I1.2204 J-0.8104
G3 X-23.6 Y15.0727 I0.7429 J-0.3972
G3 X-23.6588 Y14.8255 I1.849 J-0.5701
G3 X-23.6882 Y14.5812 I2.5221 J-0.4269
G3 X-23.6967 Y14.342 I3.3423 J-0.2392
G3 X-23.6964 Y14.2982 I3.3509 J0
G3 X-23.6809 Y14.0154 I3.3898 J0.0443
G3 X-23.6449 Y13.7654 I2.7048 J0.2622
G3 X-23.5798 Y13.5119 I2.0817 J0.3995
G3 X-23.5118 Y13.3513 I0.9511 J0.308
G3 X-23.4963 Y13.3256 I0.2491 J0.1322
G3 X-23.4457 Y13.2545 I1.4757 J0.9966
G3 X-23.3922 Y13.1851 I2.5178 J1.8865
G3 X-23.3077 Y13.0807 I5.6575 J4.4906
G3 X-23.1357 Y12.877 I8.7745 J7.2346
G3 X-22.8646 Y12.5683 I20.3062 J17.558
G3 X-22.2776 Y11.9241 I30.1005 J26.8427
G3 X-22.1146 Y11.7498 I43.2889 J40.3165
G1 Z-0.3 F30
G3 X-21.7708 Y11.3867 I43.1259 J40.4908 F60
G1 Z-0.55 F30
G3 X-21.551 Y11.1578 I42.7821 J40.8539 F60
G3 X-20.8121 Y10.4026 I56.1273 J54.1764
G3 X-20.2591 Y9.8551 I30.0859 J29.8378
G3 X-19.9943 Y9.6015 I17.5692 J18.0762
G3 X-19.8407 Y9.4601 I5.6748 J6.011
G3 X-19.762 Y9.3911 I3.0151 J3.3599
G3 X-19.7297 Y9.3643 I0.8654 J1.0106
G3 X-19.6893 Y9.3957 I-0.6162 J0.835
G3 X-19.6037 Y9.468 I-2.1976 J2.6897
G3 X-19.4428 Y9.6132 I-4.1534 J4.7616
G3 X-19.1628 Y9.8802 I-13.5584 J14.5073
G3 X-18.6341 Y10.4051 I-24.013 J24.7105
G3 X-17.8855 Y11.1763 I-50.9938 J50.254
G0 Z0.15
G0 X18.5627 Y11.3079
G1 Z-0.15 F30
G3 X19.3 Y12.0901 I-53.6593 J51.3159 F60
G3 X19.3331 Y12.1257 I-31.1294 J28.9189
G3 X19.7354 Y12.5659 I-31.1625 J28.8833
G3 X19.8474 Y12.6907 I-31.5648 J28.443
G3 X20.1265 Y13.0078 I-20.0516 J17.9256
G3 X20.2988 Y13.2118 I-8.1764 J7.0816
G3 X20.3862 Y13.3201 I-5.2904 J4.3582
G3 X20.4414 Y13.3922 I-2.342 J1.8508
G3 X20.4939 Y13.4671 I-1.3679 J1.015
G3 X20.5103 Y13.4952 I-0.2404 J0.1591
G3 X20.5826 Y13.6662 I-1.1528 J0.5881
G3 X20.6449 Y13.892 I-1.8889 J0.6431
G3 X20.6817 Y14.1178 I-2.2815 J0.4879
G3 X20.6985 Y14.367 I-2.741 J0.3099
G3 X20.6992 Y14.4287 I-2.8055 J0.0618
G3 X20.6929 Y14.617 I-2.8062 J0
G3 X20.6659 Y14.853 I-2.5385 J-0.1706
G3 X20.6139 Y15.0915 I-2.2323 J-0.3615
G3 X20.5478 Y15.2831 I-1.537 J-0.4229
G3 X20.2458 Y15.789 I-1.9138 J-0.7996
G3 X19.8227 Y16.1787 I-1.5404 J-1.2477
G3 X19.3308 Y16.4242 I-1.1431 J-1.6752
G3 X18.7845 Y16.5306 I-0.6666 J-1.9661
G3 X18.3482 Y16.5096 I-0.1197 J-2.0619
G3 X17.9303 Y16.3981 I0.3107 J-2.0026
G3 X17.5273 Y16.1879 I0.724 J-1.8793
G3 X17.1712 Y15.8853 I1.1874 J-1.7584
G1 X16.8116 Y15.5039
G2 X16.6251 Y15.5091 I-0.091 J0.0857
G1 X16.5884 Y15.5526
G1 X16.3578 Y15.8264
G3 X16.2624 Y15.9316 I-1.4412 J-1.2127
G3 X15.7243 Y16.3153 I-1.3457 J-1.3178
G3 X14.8866 Y16.5232 I-0.932 J-1.9634
G3 X14.0349 Y16.3881 I-0.0938 J-2.1609
G3 X13.3676 Y15.9566 I0.6496 J-1.7364
G3 X13.2531 Y15.832 I1.6006 J-1.5859
G3 X13.1119 Y15.6563 I2.9765 J-2.5361
G3 X12.9818 Y15.4729 I2.8992 J-2.195
G3 X12.9103 Y15.3533 I1.2204 J-0.8104
G3 X12.8482 Y15.2043 I0.7429 J-0.3972
G3 X12.7894 Y14.957 I1.849 J-0.5701
G3 X12.7601 Y14.7128 I2.5221 J-0.4269
G3 X12.7515 Y14.4736 I3.3423 J-0.2392
G3 X12.7518 Y14.4298 I3.3509 J0
G3 X12.7673 Y14.1469 I3.3898 J0.0443
G3 X12.8033 Y13.897 I2.7048 J0.2622
G3 X12.8685 Y13.6435 I2.0817 J0.3995
G3 X12.9365 Y13.4829 I0.9511 J0.308
G3 X12.9519 Y13.4572 I0.2491 J0.1322
G3 X13.0025 Y13.3861 I1.4757 J0.9966
G3 X13.056 Y13.3167 I2.5178 J1.8865
G3 X13.1405 Y13.2122 I5.6575 J4.4906
G3 X13.3125 Y13.0086 I8.7745 J7.2346
G3 X13.5836 Y12.6999 I20.3062 J17.558
G3 X13.8428 Y12.412 I30.1005 J26.8427
G3 X14.1706 Y12.0557 I29.8413 J27.1306
G3 X14.1814 Y12.0441 I43.2889 J40.3165
G3 X14.8972 Y11.2893 I43.2781 J40.3281
G3 X15.6361 Y10.5341 I56.1273 J54.1764
G3 X16.1892 Y9.9867 I30.0859 J29.8378
G3 X16.4539 Y9.7331 I17.5692 J18.0762
G3 X16.6076 Y9.5916 I5.6748 J6.011
G3 X16.6862 Y9.5227 I3.0151 J3.3599
G3 X16.7185 Y9.4959 I0.8654 J1.0106
G3 X16.7589 Y9.5273 I-0.6162 J0.835
G3 X16.8445 Y9.5995 I-2.1976 J2.6897
G3 X17.0054 Y9.7448 I-4.1534 J4.7616
G3 X17.2855 Y10.0117 I-13.5584 J14.5073
G3 X17.8141 Y10.5367 I-24.013 J24.7105
G3 X18.5627 Y11.3079 I-50.9938 J50.254
G1 Z-0.3 F30
G3 X19.3 Y12.0901 I-53.6593 J51.3159 F60
G3 X19.3331 Y12.1257 I-31.1294 J28.9189
G3 X19.7354 Y12.5659 I-31.1625 J28.8833
G3 X19.8474 Y12.6907 I-31.5648 J28.443
G3 X20.1265 Y13.0078 I-20.0516 J17.9256
G3 X20.2988 Y13.2118 I-8.1764 J7.0816
G3 X20.3862 Y13.3201 I-5.2904 J4.3582
G3 X20.4414 Y13.3922 I-2.342 J1.8508
G3 X20.4939 Y13.4671 I-1.3679 J1.015
G3 X20.5103 Y13.4952 I-0.2404 J0.1591
G3 X20.5826 Y13.6662 I-1.1528 J0.5881
G3 X20.6449 Y13.892 I-1.8889 J0.6431
G3 X20.6817 Y14.1178 I-2.2815 J0.4879
G3 X20.6985 Y14.367 I-2.741 J0.3099
G3 X20.6992 Y14.4287 I-2.8055 J0.0618
G3 X20.6929 Y14.617 I-2.8062 J0
G3 X20.6659 Y14.853 I-2.5385 J-0.1706
G3 X20.6139 Y15.0915 I-2.2323 J-0.3615
G3 X20.5478 Y15.2831 I-1.537 J-0.4229
G3 X20.2458 Y15.789 I-1.9138 J-0.7996
G3 X19.8227 Y16.1787 I-1.5404 J-1.2477
G3 X19.3308 Y16.4242 I-1.1431 J-1.6752
G3 X18.7845 Y16.5306 I-0.6666 J-1.9661
G3 X18.3482 Y16.5096 I-0.1197 J-2.0619
G3 X17.9303 Y16.3981 I0.3107 J-2.0026
G3 X17.5273 Y16.1879 I0.724 J-1.8793
G3 X17.1712 Y15.8853 I1.1874 J-1.7584
G1 X16.8116 Y15.5039
G2 X16.6251 Y15.5091 I-0.091 J0.0857
G1 X16.5884 Y15.5526
G1 X16.3578 Y15.8264
G3 X16.2624 Y15.9316 I-1.4412 J-1.2127
G3 X15.7243 Y16.3153 I-1.3457 J-1.3178
G3 X14.8866 Y16.5232 I-0.932 J-1.9634
G3 X14.0349 Y16.3881 I-0.0938 J-2.1609
G3 X13.3676 Y15.9566 I0.6496 J-1.7364
G3 X13.2531 Y15.832 I1.6006 J-1.5859
G3 X13.1119 Y15.6563 I2.9765 J-2.5361
G3 X12.9818 Y15.4729 I2.8992 J-2.195
G3 X12.9103 Y15.3533 I1.2204 J-0.8104
G3 X12.8482 Y15.2043 I0.7429 J-0.3972
G3 X12.7894 Y14.957 I1.849 J-0.5701
G3 X12.7601 Y14.7128 I2.5221 J-0.4269
G3 X12.7515 Y14.4736 I3.3423 J-0.2392
G3 X12.7518 Y14.4298 I3.3509 J0
G3 X12.7673 Y14.1469 I3.3898 J0.0443
G3 X12.8033 Y13.897 I2.7048 J0.2622
G3 X12.8685 Y13.6435 I2.0817 J0.3995
G3 X12.9365 Y13.4829 I0.9511 J0.308
G3 X12.9519 Y13.4572 I0.2491 J0.1322
G3 X13.0025 Y13.3861 I1.4757 J0.9966
G3 X13.056 Y13.3167 I2.5178 J1.8865
G3 X13.1405 Y13.2122 I5.6575 J4.4906
G3 X13.3125 Y13.0086 I8.7745 J7.2346
G3 X13.5836 Y12.6999 I20.3062 J17.558
G3 X13.8428 Y12.412 I30.1005 J26.8427
G3 X14.1706 Y12.0557 I29.8413 J27.1306
G3 X14.1814 Y12.0441 I43.2889 J40.3165
G3 X14.8972 Y11.2893 I43.2781 J40.3281
G3 X15.6361 Y10.5341 I56.1273 J54.1764
G3 X16.1892 Y9.9867 I30.0859 J29.8378
G3 X16.4539 Y9.7331 I17.5692 J18.0762
G3 X16.6076 Y9.5916 I5.6748 J6.011
G3 X16.6862 Y9.5227 I3.0151 J3.3599
G3 X16.7185 Y9.4959 I0.8654 J1.0106
G3 X16.7589 Y9.5273 I-0.6162 J0.835
G3 X16.8445 Y9.5995 I-2.1976 J2.6897
G3 X17.0054 Y9.7448 I-4.1534 J4.7616
G3 X17.2855 Y10.0117 I-13.5584 J14.5073
G3 X17.8141 Y10.5367 I-24.013 J24.7105
G3 X18.5627 Y11.3079 I-50.9938 J50.254
G1 Z-0.45 F30
G3 X19.3 Y12.0901 I-53.6593 J51.3159 F60
G3 X19.3331 Y12.1257 I-31.1294 J28.9189
G1 Z-0.3 F30
G3 X19.7354 Y12.5659 I-31.1625 J28.8833 F60
G1 Z-0.45 F30
G3 X19.8474 Y12.6907 I-31.5648 J28.443 F60
G3 X20.1265 Y13.0078 I-20.0516 J17.9256
G3 X20.2988 Y13.2118 I-8.1764 J7.0816
G3 X20.3862 Y13.3201 I-5.2904 J4.3582
G3 X20.4414 Y13.3922 I-2.342 J1.8508
G3 X20.4939 Y13.4671 I-1.3679 J1.015
G3 X20.5103 Y13.4952 I-0.2404 J0.1591
G3 X20.5826 Y13.6662 I-1.1528 J0.5881
G3 X20.6449 Y13.892 I-1.8889 J0.6431
G3 X20.6817 Y14.1178 I-2.2815 J0.4879
G3 X20.6985 Y14.367 I-2.741 J0.3099
G3 X20.6992 Y14.4287 I-2.8055 J0.0618
G3 X20.6929 Y14.617 I-2.8062 J0
G3 X20.6659 Y14.853 I-2.5385 J-0.1706
G3 X20.6139 Y15.0915 I-2.2323 J-0.3615
G3 X20.5478 Y15.2831 I-1.537 J-0.4229
G3 X20.2458 Y15.789 I-1.9138 J-0.7996
G3 X19.8227 Y16.1787 I-1.5404 J-1.2477
G3 X19.3308 Y16.4242 I-1.1431 J-1.6752
G3 X18.7845 Y16.5306 I-0.6666 J-1.9661
G3 X18.3482 Y16.5096 I-0.1197 J-2.0619
G3 X17.9303 Y16.3981 I0.3107 J-2.0026
G3 X17.5273 Y16.1879 I0.724 J-1.8793
G3 X17.1712 Y15.8853 I1.1874 J-1.7584
G1 X16.8116 Y15.5039
G2 X16.6251 Y15.5091 I-0.091 J0.0857
G1 X16.5884 Y15.5526
G1 Z-0.3 F30
G1 X16.3578 Y15.8264 F60
G3 X16.2624 Y15.9316 I-1.4412 J-1.2127
G1 Z-0.45 F30
G3 X15.7243 Y16.3153 I-1.3457 J-1.3178 F60
G3 X14.8866 Y16.5232 I-0.932 J-1.9634
G3 X14.0349 Y16.3881 I-0.0938 J-2.1609
G3 X13.3676 Y15.9566 I0.6496 J-1.7364
G3 X13.2531 Y15.832 I1.6006 J-1.5859
G3 X13.1119 Y15.6563 I2.9765 J-2.5361
G3 X12.9818 Y15.4729 I2.8992 J-2.195
G3 X12.9103 Y15.3533 I1.2204 J-0.8104
G3 X12.8482 Y15.2043 I0.7429 J-0.3972
G3 X12.7894 Y14.957 I1.849 J-0.5701
G3 X12.7601 Y14.7128 I2.5221 J-0.4269
G3 X12.7515 Y14.4736 I3.3423 J-0.2392
G3 X12.7518 Y14.4298 I3.3509 J0
G3 X12.7673 Y14.1469 I3.3898 J0.0443
G3 X12.8033 Y13.897 I2.7048 J0.2622
G3 X12.8685 Y13.6435 I2.0817 J0.3995
G3 X12.9365 Y13.4829 I0.9511 J0.308
G3 X12.9519 Y13.4572 I0.2491 J0.1322
G3 X13.0025 Y13.3861 I1.4757 J0.9966
G3 X13.056 Y13.3167 I2.5178 J1.8865
G3 X13.1405 Y13.2122 I5.6575 J4.4906
G3 X13.3125 Y13.0086 I8.7745 J7.2346
G3 X13.5836 Y12.6999 I20.3062 J17.558
G3 X13.8428 Y12.412 I30.1005 J26.8427
G1 Z-0.3 F30
G3 X14.1706 Y12.0557 I29.8413 J27.1306 F60
G3 X14.1814 Y12.0441 I43.2889 J40.3165
G1 Z-0.45 F30
G3 X14.8972 Y11.2893 I43.2781 J40.3281 F60
G3 X15.6361 Y10.5341 I56.1273 J54.1764
G3 X16.1892 Y9.9867 I30.0859 J29.8378
G3 X16.4539 Y9.7331 I17.5692 J18.0762
G3 X16.6076 Y9.5916 I5.6748 J6.011
G3 X16.6862 Y9.5227 I3.0151 J3.3599
G3 X16.7185 Y9.4959 I0.8654 J1.0106
G3 X16.7589 Y9.5273 I-0.6162 J0.835
G3 X16.8445 Y9.5995 I-2.1976 J2.6897
G3 X17.0054 Y9.7448 I-4.1534 J4.7616
G3 X17.2855 Y10.0117 I-13.5584 J14.5073
G3 X17.8141 Y10.5367 I-24.013 J24.7105
G3 X18.5627 Y11.3079 I-50.9938 J50.254
G1 Z-0.55 F30
G3 X19.3 Y12.0901 I-53.6593 J51.3159 F60
G3 X19.3331 Y12.1257 I-31.1294 J28.9189
G1 Z-0.3 F30
G3 X19.7354 Y12.5659 I-31.1625 J28.8833 F60
G1 Z-0.55 F30
G3 X19.8474 Y12.6907 I-31.5648 J28.443 F60
G3 X20.1265 Y13.0078 I-20.0516 J17.9256
G3 X20.2988 Y13.2118 I-8.1764 J7.0816
G3 X20.3862 Y13.3201 I-5.2904 J4.3582
G3 X20.4414 Y13.3922 I-2.342 J1.8508
G3 X20.4939 Y13.4671 I-1.3679 J1.015
G3 X20.5103 Y13.4952 I-0.2404 J0.1591
G3 X20.5826 Y13.6662 I-1.1528 J0.5881
G3 X20.6449 Y13.892 I-1.8889 J0.6431
G3 X20.6817 Y14.1178 I-2.2815 J0.4879
G3 X20.6985 Y14.367 I-2.741 J0.3099
G3 X20.6992 Y14.4287 I-2.8055 J0.0618
G3 X20.6929 Y14.617 I-2.8062 J0
G3 X20.6659 Y14.853 I-2.5385 J-0.1706
G3 X20.6139 Y15.0915 I-2.2323 J-0.3615
G3 X20.5478 Y15.2831 I-1.537 J-0.4229
G3 X20.2458 Y15.789 I-1.9138 J-0.7996
G3 X19.8227 Y16.1787 I-1.5404 J-1.2477
G3 X19.3308 Y16.4242 I-1.1431 J-1.6752
G3 X18.7845 Y16.5306 I-0.6666 J-1.9661
G3 X18.3482 Y16.5096 I-0.1197 J-2.0619
G3 X17.9303 Y16.3981 I0.3107 J-2.0026
G3 X17.5273 Y16.1879 I0.724 J-1.8793
G3 X17.1712 Y15.8853 I1.1874 J-1.7584
G1 X16.8116 Y15.5039
G2 X16.6251 Y15.5091 I-0.091 J0.0857
G1 X16.5884 Y15.5526
G1 Z-0.3 F30
G1 X16.3578 Y15.8264 F60
G3 X16.2624 Y15.9316 I-1.4412 J-1.2127
G1 Z-0.55 F30
G3 X15.7243 Y16.3153 I-1.3457 J-1.3178 F60
G3 X14.8866 Y16.5232 I-0.932 J-1.9634
G3 X14.0349 Y16.3881 I-0.0938 J-2.1609
G3 X13.3676 Y15.9566 I0.6496 J-1.7364
G3 X13.2531 Y15.832 I1.6006 J-1.5859
G3 X13.1119 Y15.6563 I2.9765 J-2.5361
G3 X12.9818 Y15.4729 I2.8992 J-2.195
G3 X12.9103 Y15.3533 I1.2204 J-0.8104
G3 X12.8482 Y15.2043 I0.7429 J-0.3972
G3 X12.7894 Y14.957 I1.849 J-0.5701
G3 X12.7601 Y14.7128 I2.5221 J-0.4269
G3 X12.7515 Y14.4736 I3.3423 J-0.2392
G3 X12.7518 Y14.4298 I3.3509 J0
G3 X12.7673 Y14.1469 I3.3898 J0.0443
G3 X12.8033 Y13.897 I2.7048 J0.2622
G3 X12.8685 Y13.6435 I2.0817 J0.3995
G3 X12.9365 Y13.4829 I0.9511 J0.308
G3 X12.9519 Y13.4572 I0.2491 J0.1322
G3 X13.0025 Y13.3861 I1.4757 J0.9966
G3 X13.056 Y13.3167 I2.5178 J1.8865
G3 X13.1405 Y13.2122 I5.6575 J4.4906
G3 X13.3125 Y13.0086 I8.7745 J7.2346
G3 X13.5836 Y12.6999 I20.3062 J17.558
G3 X13.8428 Y12.412 I30.1005 J26.8427
G1 Z-0.3 F30
G3 X14.1706 Y12.0557 I29.8413 J27.1306 F60
G3 X14.1814 Y12.0441 I43.2889 J40.3165
G1 Z-0.55 F30
G3 X14.8972 Y11.2893 I43.2781 J40.3281 F60
G3 X15.6361 Y10.5341 I56.1273 J54.1764
G3 X16.1892 Y9.9867 I30.0859 J29.8378
G3 X16.4539 Y9.7331 I17.5692 J18.0762
G3 X16.6076 Y9.5916 I5.6748 J6.011
G3 X16.6862 Y9.5227 I3.0151 J3.3599
G3 X16.7185 Y9.4959 I0.8654 J1.0106
G3 X16.7589 Y9.5273 I-0.6162 J0.835
G3 X16.8445 Y9.5995 I-2.1976 J2.6897
G3 X17.0054 Y9.7448 I-4.1534 J4.7616
G3 X17.2855 Y10.0117 I-13.5584 J14.5073
G3 X17.8141 Y10.5367 I-24.013 J24.7105
G3 X18.5627 Y11.3079 I-50.9938 J50.254

(Profiles)
G0 Z0.15
G0 X-36.4144 Y-2.9421
G1 Z-0.12 F30
G3 X-36.3799 Y-7.7644 I754.6384 J2.9915 F60
G3 X-36.3211 Y-11.9456 I567.326 J5.8746
G3 X-36.2778 Y-14.0949 I443.312 J7.8585
G3 X-36.2339 Y-15.8103 I282.3894 J6.3756
G3 X-36.1744 Y-17.6145 I209.4819 J6.003
G3 X-36.1211 Y-18.8347 I95.8086 J3.5717
G1 X-35.9883 Y-21.4914
G3 X-35.8617 Y-21.6101 I0.1248 J0.0062
G1 X-35.5879 Y-21.6064
G3 X-35.5045 Y-21.6044 I-0.0591 J4.2939
G3 X-35.1119 Y-21.5906 I-3.2504 J97.9113
G3 X-34.7429 Y-21.5766 I-8.1231 J218.293
G3 X-34.1227 Y-21.5521 I-23.9964 J616.7945
G3 X-32.9242 Y-21.5036 I-41.3031 J1034.8546
G3 X-31.1783 Y-21.4312 I-90.2069 J2196.3079
G3 X-30.7245 Y-21.4122 I-103.5986 J2474.3885
G3 X-30.2249 Y-21.3911 I-104.0524 J2474.3694
G3 X-27.1056 Y-21.2573 I-104.552 J2474.3484
G3 X-25.4884 Y-21.1836 I-16.976 J390.0972
G2 X-24.6705 Y-21.1488 I3.809 J-79.9011
G2 X-23.6432 Y-21.1145 I4.7126 J-125.9412
G2 X-22.6159 Y-21.0892 I3.2969 J-112.6979
G2 X-21.9928 Y-21.0813 I0.8362 J-41.5312
G2 X-21.4376 Y-21.0806 I0.3666 J-71.464
G2 X-21.1722 Y-21.0835 I-0.0433 J-16.419
G2 X-20.8578 Y-21.0949 I-0.1688 J-8.9778
G2 X-20.6912 Y-21.1092 I-0.141 J-2.6159
G2 X-20.5328 Y-21.1367 I-0.174 J-1.4722
G2 X-20.4401 Y-21.1661 I-0.1352 J-0.5877
G2 X-20.3701 Y-21.2014 I-0.187 J-0.4581
G2 X-20.2757 Y-21.2668 I-0.4964 J-0.8164
G3 X-20.1839 Y-21.3336 I0.9322 J1.1851
G3 X-20.1055 Y-21.3808 I0.514 J0.7657
G3 X-20.0161 Y-21.4217 I0.3692 J0.689
G3 X-19.9278 Y-21.4487 I0.2395 J0.6246
G3 X-19.8369 Y-21.4634 I0.1537 J0.6626
G3 X-19.7364 Y-21.4667 I0.0781 J0.8426
G3 X-19.6432 Y-21.46 I-0.0271 J1.025
G3 X-19.526 Y-21.4421 I-0.205 J1.7355
G2 X-19.3799 Y-21.4279 I0.153 J-0.8153
G2 X-19.1326 Y-21.44 I0.0178 J-2.1673
G2 X-18.8841 Y-21.4779 I-0.2931 J-2.7526
G2 X-18.625 Y-21.5413 I-0.607 J-3.0425
G3 X-18.3762 Y-21.6083 I1.8037 J6.2045
G3 X-18.1278 Y-21.6646 I1.5175 J6.121
G3 X-17.8755 Y-21.7088 I0.8882 J4.3229
G3 X-17.7578 Y-21.7174 I0.1177 J0.8086
G3 X-17.4857 Y-21.6622 I0 J0.6985
G3 X-17.2334 Y-21.4978 I-0.3325 J0.7861
G3 X-17.0559 Y-21.2548 I-0.5605 J0.596
G3 X-16.9967 Y-20.9942 I-0.5451 J0.2607
G2 X-16.9883 Y-20.8358 I1.4968 J0
G2 X-16.9711 Y-20.7442 I0.5768 J-0.0614
G2 X-16.9356 Y-20.6546 I0.4241 J-0.1159
G2 X-16.881 Y-20.5741 I0.3948 J-0.2088
G2 X-16.807 Y-20.501 I0.4574 J-0.389
G2 X-16.67 Y-20.4003 I0.9214 J-1.1105
G2 X-16.533 Y-20.318 I1.2836 J-1.9821
G2 X-16.2828 Y-20.1854 I3.4799 J-6.2653
G2 X-16.1465 Y-20.1171 I12.3241 J-24.414
G2 X-16.0743 Y-20.0816 I3.4316 J-6.8932
G2 X-15.9773 Y-20.0359 I2.2786 J-4.6996
G2 X-15.9111 Y-20.0066 I1.0243 J-2.228
G2 X-15.768 Y-19.9543 I0.58 J-1.3667
G2 X-15.6722 Y-19.9323 I0.1991 J-0.6464
G2 X-15.5752 Y-19.9248 I0.0975 J-0.6311
G2 X-15.4375 Y-19.9327 I0.0009 J-1.1851
G2 X-15.3327 Y-19.9479 I-0.2205 J-1.898
G2 X-15.0696 Y-19.9965 I-1.967 J-11.3837
G2 X-14.8392 Y-20.047 I-1.0477 J-5.3253
G2 X-14.647 Y-20.0988 I-0.9188 J-3.792
G2 X-14.4338 Y-20.1682 I-1.2288 J-4.1368
G2 X-14.1587 Y-20.272 I-2.4504 J-6.9116
G2 X-13.8857 Y-20.3857 I-3.9909 J-9.9687
G2 X-13.4563 Y-20.576 I-10.6765 J-24.6759
G2 X-13.0754 Y-20.7509 I-18.1303 J-39.9726
G2 X-12.3987 Y-21.0679 I-58.7207 J-126.2452
G3 X-12.0234 Y-21.2423 I15.5532 J32.9745
G3 X-11.798 Y-21.3429 I5.3659 J11.7193
G3 X-11.5518 Y-21.4449 I3.0607 J7.0377
G3 X-11.4052 Y-21.4975 I0.9275 J2.3529
G3 X-11.2492 Y-21.5384 I0.4318 J1.33
G3 X-11.1475 Y-21.5468 I0.0865 J0.4303
G3 X-11.0891 Y-21.5392 I-0.0108 J0.3138
G3 X-11.0346 Y-21.5195 I-0.051 J0.2255
G3 X-10.9859 Y-21.4853 I-0.0983 J0.1917
G3 X-10.9484 Y-21.4395 I-0.1521 J0.1629
G2 X-10.9426 Y-21.4336 I0.0163 J-0.0101
G2 X-10.8966 Y-21.4124 I0.0923 J-0.1399
G2 X-10.8357 Y-21.4012 I0.0866 J-0.3013
G2 X-10.7414 Y-21.4006 I0.0513 J-0.6228
G2 X-10.6447 Y-21.4136 I-0.0521 J-0.7543
G2 X-10.5441 Y-21.4403 I-0.1667 J-0.8306
G2 X-10.4433 Y-21.4816 I-0.252 J-0.758
G2 X-10.3635 Y-21.5289 I-0.2671 J-0.5426
G3 X-10.1258 Y-21.6814 I2.0148 J2.8766
G3 X-9.7947 Y-21.8628 I3.2298 J5.505
G3 X-9.4659 Y-22.0209 I3.586 J7.0347
G3 X-9.0846 Y-22.1844 I4.2279 J9.3364
G3 X-8.6974 Y-22.3326 I4.081 J10.0788
G3 X-8.3082 Y-22.4648 I3.6298 J10.0499
G3 X-7.9011 Y-22.5848 I3.0023 J9.4333
G3 X-7.5416 Y-22.673 I1.9648 J7.2327
G2 X-7.1021 Y-22.7735 I-5.4563 J-24.8826
G2 X-6.7401 Y-22.8637 I-4.0441 J-16.9986
G2 X-6.5707 Y-22.9092 I-2.937 J-11.271
G2 X-6.4619 Y-22.9406 I-1.3146 J-4.7503
G2 X-6.3532 Y-22.9762 I-0.7147 J-2.3694
G2 X-6.3358 Y-22.9838 I-0.043 J-0.1218
G3 X-6.2526 Y-23.0217 I0.3576 J0.6751
G3 X-6.0979 Y-23.0761 I1.0098 J2.6235
G3 X-5.9424 Y-23.122 I1.103 J3.4543
G3 X-5.7953 Y-23.158 I0.8218 J3.0361
G2 X-5.6663 Y-23.1925 I-0.3178 J-1.4468
G2 X-5.557 Y-23.2332 I-0.3484 J-1.1015
G2 X-5.5092 Y-23.2557 I-0.3187 J-0.7385
G2 X-5.481 Y-23.2719 I-0.1619 J-0.3164
G2 X-5.4651 Y-23.2833 I-0.09 J-0.1422
G3 X-5.4197 Y-23.3294 I0.1499 J0.1023
G3 X-5.3586 Y-23.3638 I0.1997 J0.2836
G3 X-5.3035 Y-23.3841 I0.2033 J0.4664
G3 X-5.232 Y-23.4028 I0.2699 J0.886
G3 X-5.0839 Y-23.4263 I0.2744 J1.2517
G3 X-4.9113 Y-23.4348 I0.1726 J1.7432
G3 X-4.7649 Y-23.4273 I0 J1.4412
G3 X-4.6545 Y-23.4079 I-0.0785 J0.7689
G3 X-4.5334 Y-23.3658 I-0.1782 J0.7071
G3 X-4.4075 Y-23.2973 I-0.3921 J0.8713
G3 X-4.2951 Y-23.216 I-0.7063 J1.0945
G3 X-4.1385 Y-23.0805 I-1.9377 J2.3982
G3 X-4.0088 Y-22.956 I-3.42 J3.695
G3 X-3.7812 Y-22.7254 I-11.7336 J11.8024
G2 X-3.4832 Y-22.4266 I9.9085 J-9.5859
G2 X-3.1519 Y-22.1135 I11.2053 J-11.5249
G2 X-2.8277 Y-21.8238 I10.7443 J-11.6969
G2 X-2.5342 Y-21.5766 I8.1392 J-9.3627
G2 X-2.2332 Y-21.3406 I6.0632 J-7.4267
G2 X-2.0327 Y-21.1992 I2.4149 J-3.2113
G2 X-1.9287 Y-21.1342 I1.3564 J-2.0537
G2 X-1.8635 Y-21.099 I0.4907 J-0.8301
G2 X-1.8009 Y-21.0735 I0.211 J-0.4286
G3 X-1.7143 Y-21.0603 I-0.0001 J0.2916
G3 X-1.637 Y-21.0156 I-0.0605 J0.1939
G3 X-1.5848 Y-20.9414 I-0.1458 J0.1578
G3 X-1.559 Y-20.8498 I-0.3518 J0.1488
G3 X-1.5521 Y-20.7674 I-0.6169 J0.0933
G3 X-1.5518 Y-20.7351 I-1.8414 J0.0323
G3 X-1.5544 Y-20.636 I-1.8416 J0
G3 X-1.5629 Y-20.5194 I-3.1676 J-0.1707
G3 X-1.5834 Y-20.3171 I-9.8323 J-0.894
G2 X-1.6682 Y-19.5131 I65.4089 J7.3084
G2 X-1.7215 Y-18.9269 I34.7829 J3.4544
G2 X-1.7684 Y-18.2726 I31.2397 J2.5721
G2 X-1.8036 Y-17.5865 I34.3111 J2.1032
G2 X-1.8263 Y-16.8996 I41.7564 J1.7228
G2 X-1.8441 Y-15.9533 I79.1162 J1.9617
G2 X-1.8519 Y-15.1049 I117.7021 J1.5102
G2 X-1.8549 Y-14.4575 I328.411 J1.8464
G2 X-1.8564 Y-13.9575 I328.414 J1.199
G2 X-1.8568 Y-13.6872 I328.4154 J0.699
G1 X-1.862 Y-9.7001
G3 X-1.8962 Y-9.6145 I-0.125 J-0.0002
G1 X-2.3764 Y-9.106
G1 X-2.8223 Y-8.6343
G1 X-2.8132 Y-7.7596
G3 X-2.8124 Y-7.6111 I-14.5894 J0.1485
G3 X-2.8135 Y-7.4325 I-14.5902 J0
G3 X-2.8196 Y-7.2385 I-5.0521 J-0.0619
G3 X-2.838 Y-7.014 I-3.6028 J-0.1827
G3 X-2.8661 Y-6.8302 I-2.3987 J-0.2725
G3 X-2.9084 Y-6.649 I-2.3225 J-0.447
G3 X-2.9731 Y-6.4415 I-3.1612 J-0.8709
G3 X-3.0383 Y-6.2661 I-4.2175 J-1.4689
G3 X-3.156 Y-5.9794 I-11.6054 J-4.5956
G2 X-3.319 Y-5.5883 I28.3242 J12.0378
G2 X-3.4114 Y-5.3548 I10.0781 J4.1203
G2 X-3.507 Y-5.0897 I7.0075 J2.678
G2 X-3.5711 Y-4.8849 I4.1665 J1.4154
G2 X-3.6243 Y-4.6779 I3.792 J1.0851
G2 X-3.6696 Y-4.4531 I4.4058 J1.006
G2 X-3.7013 Y-4.2514 I5.5804 J0.9795
G2 X-3.741 Y-3.9382 I13.2434 J1.8354
G3 X-3.7678 Y-3.7395 I-4.8932 J-0.5607
G3 X-3.794 Y-3.5993 I-2.3977 J-0.3742
G3 X-3.8331 Y-3.4492 I-1.8288 J-0.3967
G3 X-3.8782 Y-3.3242 I-1.2779 J-0.3904
G3 X-3.9362 Y-3.2038 I-1.1647 J-0.487
G3 X-4.0102 Y-3.0834 I-1.2524 J-0.6873
G3 X-4.0879 Y-2.979 I-1.3996 J-0.9593
G3 X-4.1987 Y-2.8489 I-2.3572 J-1.8969
G2 X-4.4046 Y-2.5866 I1.8055 J1.6291
G2 X-4.5617 Y-2.315 I1.7922 J1.2179
G2 X-4.6722 Y-2.0352 I1.7843 J0.8661
G2 X-4.7283 Y-1.7781 I1.4756 J0.4567
G2 X-4.7392 Y-1.6094 I1.2951 J0.1687
G2 X-4.7362 Y-1.5202 I1.3061 J0
G2 X-4.6973 Y-1.3124 I0.9087 J-0.0622
G2 X-4.6072 Y-1.1211 I0.7268 J-0.2256
G2 X-4.4789 Y-0.9775 I0.5416 J-0.3546
G3 X-4.3445 Y-0.8522 I-1.0144 J1.2231
G3 X-4.2339 Y-0.7209 I-0.9888 J0.9449
G3 X-4.1868 Y-0.6516 I-0.8519 J0.6305
G3 X-4.1537 Y-0.5918 I-0.5488 J0.3426
G3 X-4.1258 Y-0.5197 I-0.4187 J0.2034
G3 X-4.1161 Y-0.4519 I-0.2305 J0.0678
G1 X-4.1161 Y-0.4519
G3 X-4.1207 Y-0.4087 I-0.2033 J0
G3 X-4.1332 Y-0.3626 I-0.4587 J-0.0997
G3 X-4.1473 Y-0.3235 I-0.6832 J-0.2233
G3 X-4.1689 Y-0.2712 I-1.3708 J-0.5376
G3 X-4.2146 Y-0.1733 I-2.0617 J-0.9014
G3 X-4.2886 Y-0.0295 I-4.6658 J-2.3129
G3 X-4.4552 Y0.2662 I-6.912 J-3.698
G3 X-4.6728 Y0.6194 I-10.1244 J-5.9943
G2 X-4.8656 Y0.9263 I17.2635 J11.0611
G2 X-4.9581 Y1.0824 I4.4531 J2.7434
G2 X-5.0571 Y1.2707 I2.7672 J1.575
G2 X-5.1111 Y1.3979 I1.2676 J0.6133
G2 X-5.1502 Y1.5274 I1.0643 J0.3914
G2 X-5.175 Y1.667 I1.2039 J0.2859
G2 X-5.1848 Y1.7886 I1.6129 J0.192
G2 X-5.1896 Y2.0107 I5.1204 J0.2221
G3 X-5.1923 Y2.2391 I-9.6033 J0
G3 X-5.198 Y2.3559 I-2.4178 J-0.0575
G3 X-5.2155 Y2.498 I-1.4088 J-0.1018
G3 X-5.2407 Y2.5929 I-0.5605 J-0.0983
G3 X-5.289 Y2.6877 I-0.4032 J-0.1455
G3 X-5.3579 Y2.7649 I-0.3213 J-0.2176
G3 X-5.4253 Y2.8129 I-0.3008 J-0.3513
G3 X-5.5311 Y2.8677 I-0.5927 J-1.0139
G2 X-5.6239 Y2.9173 I0.3484 J0.7648
G2 X-5.6918 Y2.9664 I0.2977 J0.4826
G2 X-5.7127 Y2.9855 I0.2338 J0.2771
G2 X-5.6949 Y3.0108 I0.4385 J-0.2892
G2 X-5.651 Y3.0667 I1.1836 J-0.885
G2 X-5.5581 Y3.1728 I1.8664 J-1.5408
G2 X-5.4226 Y3.3126 I3.3065 J-3.0703
G2 X-5.2811 Y3.4464 I3.1776 J-3.2169
G2 X-5.1734 Y3.5385 I1.644 J-1.8143
G2 X-5.1168 Y3.582 I0.9428 J-1.1699
G2 X-5.0834 Y3.6045 I0.3193 J-0.4373
G2 X-5.0638 Y3.6153 I0.1155 J-0.1857
G3 X-4.9959 Y3.6464 I-0.0197 J0.1327
G3 X-4.962 Y3.686 I-0.1133 J0.1313
G3 X-4.9468 Y3.7145 I-0.1986 J0.1239
G3 X-4.9334 Y3.7482 I-0.4183 J0.1865
G3 X-4.915 Y3.8082 I-0.6862 J0.243
G3 X-4.8929 Y3.903 I-1.9141 J0.497
G3 X-4.8581 Y4.1006 I-3.2109 J0.6669
G3 X-4.8251 Y4.3711 I-6.0963 J0.8815
G2 X-4.8078 Y4.5432 I169.1024 J-16.8592
G2 X-4.7776 Y4.8422 I509.5947 J-51.3298
G3 X-4.7406 Y5.2106 I-257.2907 J26.0685
G3 X-4.726 Y5.3588 I-41.5255 J4.1473
G3 X-4.7043 Y5.5953 I-27.3607 J2.634
G3 X-4.6926 Y5.7413 I-10.3422 J0.9055
G3 X-4.6824 Y5.9073 I-6.7705 J0.4967
G3 X-4.6791 Y6.0187 I-2.9694 J0.1448
G3 X-4.679 Y6.0416 I-2.0321 J0.0228
G3 X-4.6812 Y6.1366 I-2.0322 J0
G3 X-4.6889 Y6.2229 I-1.0245 J-0.048
G3 X-4.7054 Y6.3098 I-0.7704 J-0.1017
G3 X-4.7295 Y6.3832 I-0.5275 J-0.132
G3 X-4.7613 Y6.4478 I-0.4726 J-0.1928
G3 X-4.8039 Y6.5112 I-0.5238 J-0.3058
G3 X-4.8393 Y6.5539 I-0.5888 J-0.4519
G3 X-4.8986 Y6.6175 I-1.5363 J-1.373
G3 X-4.908 Y6.6272 I-3.1456 J-3.0596
G3 X-4.9248 Y6.6443 I-10.1176 J-9.9015
G2 X-4.9444 Y6.6643 I28.402 J27.8898
G2 X-4.9521 Y6.6722 I4.4851 J4.398
G2 X-4.9855 Y6.7067 I3.6944 J3.6099
G2 X-5.0111 Y6.7337 I2.2852 J2.1919
G2 X-5.1919 Y6.9433 I2.4519 J2.2969
G2 X-5.3133 Y7.1143 I1.5495 J1.2285
G2 X-5.4204 Y7.3099 I1.4974 J0.9477
G2 X-5.5065 Y7.5267 I1.7455 J0.8182
G2 X-5.5687 Y7.7547 I2.2057 J0.7242
G2 X-5.625 Y8.0695 I4.0606 J0.8886
G2 X-5.659 Y8.3687 I5.8878 J0.8206
G2 X-5.6919 Y8.8308 I13.8442 J1.2188
G2 X-5.7071 Y9.3889 I10.2344 J0.5581
G2 X-5.7062 Y9.5242 I10.2497 J0
G2 X-5.6753 Y10.101 I7.1482 J-0.0943
G2 X-5.5945 Y10.6612 I5.7356 J-0.5409
G2 X-5.4841 Y11.0847 I3.4276 J-0.6674
G2 X-5.3168 Y11.48 I2.4732 J-0.8133
G2 X-5.1435 Y11.7373 I1.2505 J-0.6555
G2 X-5.0361 Y11.8479 I0.8677 J-0.7352
G2 X-4.9296 Y11.93 I0.5947 J-0.6616
G2 X-4.8119 Y11.9941 I0.4465 J-0.6802
G2 X-4.6901 Y12.0359 I0.3063 J-0.6935
G2 X-4.6472 Y12.0452 I0.1689 J-0.673
G2 X-4.5261 Y12.066 I0.8559 J-4.6353
G2 X-4.4078 Y12.0838 I1.2878 J-8.1594
G2 X-4.2369 Y12.1073 I2.4093 J-16.8472
G2 X-3.8749 Y12.1525 I3.1462 J-23.713
G2 X-3.4667 Y12.1976 I3.524 J-30.0713
G3 X-2.9459 Y12.2672 I-0.905 J8.7475
G3 X-2.5457 Y12.349 I-0.8533 J5.1934
G3 X-2.1439 Y12.4693 I-0.9938 J4.0525
G3 X-1.8231 Y12.6058 I-0.9499 J2.6764
G3 X-1.522 Y12.7842 I-1.1061 J2.211
G3 X-1.2661 Y12.9917 I-1.2389 J1.7895
G3 X-1.0487 Y13.2293 I-1.5221 J1.6108
G3 X-0.8484 Y13.5204 I-2.1174 J1.6716
G3 X-0.7506 Y13.6923 I-4.1837 J2.4919
G3 X-0.6821 Y13.8275 I-2.4651 J1.3357
G3 X-0.6184 Y13.9751 I-2.0685 J0.9801
G3 X-0.5719 Y14.1099 I-1.6484 J0.6436
G3 X-0.5366 Y14.2484 I-1.6244 J0.4877
G3 X-0.5117 Y14.3957 I-1.8272 J0.3845
G3 X-0.4984 Y14.5362 I-2.1169 J0.271
G3 X-0.4923 Y14.7103 I-3.3196 J0.2034
G2 X-0.4802 Y14.9317 I2.4239 J-0.0214
G2 X-0.4398 Y15.2298 I4.3395 J-0.4369
G2 X-0.3786 Y15.5235 I4.0863 J-0.6986
G2 X-0.3221 Y15.7087 I1.7417 J-0.4294
G3 X-0.2657 Y15.8704 I-5.7595 J2.1005
G3 X-0.2361 Y15.9672 I-1.9473 J0.6492
G3 X-0.2098 Y16.0807 I-1.2476 J0.3486
G3 X-0.2004 Y16.1646 I-0.5851 J0.108
G3 X-0.2 Y16.183 I-0.4554 J0.0185
G3 X-0.2058 Y16.2552 I-0.4558 J0
G3 X-0.2291 Y16.3379 I-0.3689 J-0.0592
G3 X-0.2639 Y16.4044 I-0.3715 J-0.1525
G3 X-0.3182 Y16.477 I-0.5836 J-0.3796
G2 X-0.3749 Y16.5457 I1.9626 J1.6766
G2 X-0.408 Y16.5896 I0.8216 J0.6542
G2 X-0.4429 Y16.643 I0.6305 J0.4502
G2 X-0.4657 Y16.686 I0.4197 J0.2503
G2 X-0.4969 Y16.78 I0.3796 J0.1778
G2 X-0.5108 Y16.9131 I0.6809 J0.1389
G2 X-0.5109 Y16.9231 I1.1872 J0.01
G2 X-0.5033 Y17.0574 I1.1872 J0
G2 X-0.4621 Y17.3355 I4.1608 J-0.4738
G2 X-0.4174 Y17.5616 I7.6835 J-1.4024
G2 X-0.3058 Y18.0684 I38.2635 J-8.1572
G3 X-0.2946 Y18.1218 I-1.6538 J0.3756
G3 X-0.2889 Y18.1563 I-0.5835 J0.1129
G3 X-0.2853 Y18.2062 I-0.4236 J0.0564
G3 X-0.2852 Y18.2101 I-0.2564 J0.0039
G3 X-0.2886 Y18.2515 I-0.2564 J0
G3 X-0.3055 Y18.3073 I-0.2173 J-0.0356
G3 X-0.3381 Y18.3572 I-0.1815 J-0.0827
G3 X-0.3821 Y18.3947 I-0.1567 J-0.1396
G3 X-0.4331 Y18.4203 I-0.1522 J-0.2392
G3 X-0.5187 Y18.4426 I-0.1434 J-0.3751
G3 X-0.6704 Y18.4573 I-0.2296 J-1.5787
G3 X-0.7825 Y18.4608 I-0.156 J-3.1904
G3 X-1.0597 Y18.4627 I-0.2772 J-20.1835
G2 X-1.2456 Y18.4653 I0 J6.542
G2 X-1.3767 Y18.4717 I0.0943 J3.3158
G2 X-1.5087 Y18.4844 I0.159 J2.3354
G2 X-1.5972 Y18.4991 I0.1405 J1.1214
G2 X-1.6799 Y18.521 I0.1563 J0.7554
G2 X-1.7296 Y18.5415 I0.1102 J0.3382
G2 X-1.769 Y18.5663 I0.11 J0.2185
G2 X-1.7929 Y18.5893 I0.0917 J0.1189
G3 X-1.8655 Y18.6594 I-0.3516 J-0.2918
G3 X-1.9496 Y18.7095 I-0.2512 J-0.3259
G3 X-2.0466 Y18.7413 I-0.2039 J-0.4589
G3 X-2.1817 Y18.7617 I-0.225 J-1.0322
G3 X-2.3125 Y18.7678 I-0.1457 J-1.7061
G3 X-2.5289 Y18.765 I-0.0427 J-4.9129
G3 X-2.7211 Y18.7559 I0.2957 J-8.3609
G3 X-3.065 Y18.7337 I1.5811 J-27.06
G3 X-3.5504 Y18.6864 I0.668 J-9.3826
G3 X-3.9455 Y18.6248 I0.7705 J-6.2364
G3 X-4.1381 Y18.5844 I0.9097 J-4.8187
G3 X-4.2932 Y18.5445 I0.7201 J-3.1217
G3 X-4.4496 Y18.4944 I0.6708 J-2.3619
G3 X-4.5624 Y18.4479 I0.4347 J-1.2151
G2 X-4.6402 Y18.4158 I-0.3846 J0.8208
G2 X-4.7784 Y18.3706 I-0.8447 J2.3486
G2 X-4.9159 Y18.333 I-0.9892 J3.3517
G2 X-5.0883 Y18.2927 I-1.3003 J5.1739
G2 X-5.4582 Y18.2242 I-1.3371 J6.1817
G2 X-5.7985 Y18.1828 I-0.8067 J5.2126
G1 X-6.4869 Y18.1217
G1 X-6.4489 Y18.3548
G1 X-6.3854 Y18.7471
G3 X-6.3838 Y18.7671 I-0.1234 J0.02
G3 X-6.5088 Y18.8921 I-0.125 J0
G1 X-7.5438 Y18.8921
G2 X-8.2781 Y18.9181 I0 J10.3504
G2 X-8.7866 Y18.9609 I1.4022 J19.716
G2 X-9.2836 Y19.0155 I1.9108 J19.6732
G2 X-9.2915 Y19.0165 I2.4077 J19.6186
G2 X-10.3011 Y19.1627 I2.9356 J23.8402
G2 X-11.3968 Y19.3671 I4.7051 J28.2575
G3 X-11.739 Y19.4258 I-1.0354 J-5.0073
G3 X-12.01 Y19.4508 I-0.419 J-3.0619
G3 X-12.2851 Y19.4467 I-0.1049 J-2.1881
G3 X-12.4693 Y19.4134 I0.0723 J-0.9275
G2 X-12.5876 Y19.3885 I-0.2327 J0.8114
G2 X-12.7863 Y19.3708 I-0.2869 J2.0982
G2 X-12.9869 Y19.3712 I-0.0953 J2.2864
G2 X-13.1368 Y19.3866 I0.0616 J1.3387
G3 X-13.3317 Y19.4065 I-0.2724 J-1.7035
G3 X-13.4794 Y19.4012 I-0.041 J-0.9121
G3 X-13.5549 Y19.3878 I0.0759 J-0.6456
G3 X-13.6165 Y19.3675 I0.0911 J-0.3804
G3 X-13.6815 Y19.3297 I0.1174 J-0.2769
G3 X-13.7323 Y19.2736 I0.1264 J-0.1656
G2 X-13.7737 Y19.2371 I-0.0809 J0.05
G2 X-13.8698 Y19.2187 I-0.086 J0.1884
G2 X-13.9781 Y19.2468 I0.0133 J0.2731
G2 X-14.0616 Y19.3132 I0.1131 J0.2278
G3 X-14.1266 Y19.3708 I-0.2121 J-0.1742
G3 X-14.2321 Y19.4272 I-0.4337 J-0.6835
G3 X-14.3336 Y19.4674 I-0.5465 J-1.2322
G3 X-14.4846 Y19.5158 I-0.9902 J-2.8314
G3 X-14.7815 Y19.5919 I-1.32 J-4.5293
G3 X-15.2353 Y19.6827 I-2.368 J-10.6595
G3 X-15.6913 Y19.7562 I-2.4755 J-13.9029
G3 X-16.2121 Y19.8239 I-2.617 J-18.1114
G3 X-16.7594 Y19.8788 I-2.146 J-18.6109
G3 X-17.276 Y19.915 I-1.4161 J-16.5333
G2 X-17.6822 Y19.9421 I0.8932 J16.4536
G2 X-17.9668 Y19.9696 I0.6458 J8.1641
G2 X-18.264 Y20.011 I0.6942 J6.0708
G2 X-18.495 Y20.0563 I0.6175 J3.7554
G2 X-18.7211 Y20.1167 I0.7247 J3.1687
G2 X-18.9288 Y20.189 I0.8435 J2.7576
G2 X-19.1206 Y20.2718 I1.1011 J2.8128
G2 X-19.3413 Y20.3844 I1.7974 J3.7952
G3 X-19.4109 Y20.4116 I-0.1389 J-0.2536
G3 X-19.5429 Y20.438 I-0.3629 J-1.4699
G3 X-19.6674 Y20.4543 I-0.4237 J-2.7458
G3 X-19.8517 Y20.4715 I-0.6674 J-6.1609
G3 X-20.2405 Y20.4936 I-0.713 J-9.118
G3 X-20.7061 Y20.5019 I-0.4656 J-13.1276
G2 X-21.1094 Y20.5047 I0 J28.6232
G2 X-21.316 Y20.5104 I0.1072 J7.6057
G2 X-21.5564 Y20.5266 I0.1916 J4.6418
G2 X-21.7115 Y20.5472 I0.1883 J2.0155
G2 X-21.8614 Y20.5805 I0.2678 J1.5559
G2 X-22.0045 Y20.6275 I0.4029 J1.4685
G2 X-22.124 Y20.6782 I0.6707 J1.7461
G2 X-22.3222 Y20.7758 I2.1975 J4.7151
G3 X-22.4513 Y20.8417 I-5.205 J-10.0323
G3 X-22.5235 Y20.8769 I-1.5177 J-3.0195
G3 X-22.6241 Y20.9218 I-1.0441 J-2.2065
G3 X-22.7036 Y20.9523 I-0.5421 J-1.2934
G3 X-22.8872 Y20.9989 I-0.3561 J-1.0194
G3 X-23.0752 Y21.0124 I-0.1706 J-1.0539
G3 X-23.2583 Y20.9977 I0.0233 J-1.4321
G3 X-23.5526 Y20.9436 I0.5818 J-3.9946
G3 X-23.685 Y20.9128 I1.5197 J-6.8351
G3 X-23.8795 Y20.8643 I3.6354 J-14.9737
G3 X-24.0229 Y20.827 I5.7017 J-22.2191
G3 X-24.2949 Y20.7548 I21.1871 J-80.4042
G2 X-24.3289 Y20.7521 I-0.0243 J0.091
G2 X-24.3534 Y20.7596 I0.0068 J0.0656
G2 X-24.3865 Y20.7845 I0.0643 J0.1197
G2 X-24.4514 Y20.8654 I0.3909 J0.3804
G2 X-24.509 Y20.9651 I0.8395 J0.5516
G2 X-24.5934 Y21.1485 I2.5585 J1.2887
G2 X-24.6655 Y21.3319 I4.236 J1.7717
G2 X-24.7688 Y21.6244 I10.5154 J3.8769
G3 X-24.8109 Y21.7101 I-0.3462 J-0.1169
G3 X-24.873 Y21.7776 I-0.2462 J-0.164
G3 X-24.9536 Y21.8251 I-0.2097 J-0.2636
G3 X-25.0624 Y21.8593 I-0.2452 J-0.5911
G3 X-25.1671 Y21.8764 I-0.2164 J-0.9923
G3 X-25.336 Y21.89 I-0.3102 J-2.8039
G3 X-25.4877 Y21.8952 I-0.2376 J-4.7381
G3 X-25.7508 Y21.8975 I-0.2631 J-14.522
G2 X-26.0637 Y21.9054 I0 J6.2007
G2 X-26.2616 Y21.9231 I0.1296 J2.5638
G2 X-26.4878 Y21.9641 I0.2867 J2.2294
G2 X-26.7304 Y22.0331 I0.6118 J2.6102
G2 X-26.9697 Y22.1232 I1.1455 J3.4071
G2 X-27.3343 Y22.2855 I3.3094 J7.9273
G2 X-27.6438 Y22.4365 I6.0549 J12.7967
G2 X-28.2314 Y22.737 I23.2249 J46.1465
G3 X-28.4158 Y22.8145 I-0.5687 J-1.0949
G3 X-28.6666 Y22.8804 I-0.6771 J-2.0659
G3 X-28.9086 Y22.9163 I-0.4788 J-2.3943
G3 X-29.1303 Y22.9255 I-0.1925 J-1.9751
G3 X-29.2656 Y22.9175 I0.0227 J-1.5414
G3 X-29.37 Y22.9003 I0.0898 J-0.8711
G3 X-29.4833 Y22.8624 I0.1331 J-0.5856
G3 X-29.5645 Y22.8076 I0.1184 J-0.2631
G2 X-29.7467 Y22.6545 I-1.2718 J1.3278
G2 X-30.0093 Y22.4809 I-1.8565 J2.5231
G2 X-30.2726 Y22.3395 I-1.8483 J3.1274
G2 X-30.5483 Y22.2195 I-1.6042 J3.3081
G2 X-30.8316 Y22.1247 I-1.1535 J2.9767
G2 X-31.043 Y22.0789 I-0.4707 J1.6613
G2 X-31.15 Y22.0676 I-0.1789 J1.1775
G2 X-31.2242 Y22.0676 I-0.0372 J0.6157
G2 X-31.2937 Y22.0779 I0.0239 J0.3974
G2 X-31.3239 Y22.0895 I0.0298 J0.1237
G3 X-31.3851 Y22.1159 I-0.1888 J-0.3529
G3 X-31.5042 Y22.1517 I-0.6016 J-1.7881
G3 X-31.6176 Y22.1795 I-0.8345 J-3.1545
G3 X-31.7803 Y22.2143 I-1.4929 J-6.5885
G3 X-32.1247 Y22.2769 I-1.8879 J-9.3998
G3 X-32.5211 Y22.3351 I-2.0287 J-12.4373
G3 X-32.8517 Y22.3755 I-2.5675 J-19.656
G3 X-33.0446 Y22.3945 I-0.7476 J-6.5828
G3 X-33.2663 Y22.4076 I-0.3706 J-4.4095
G3 X-33.4317 Y22.4074 I-0.0806 J-2.3935
G3 X-33.5982 Y22.3947 I0.0725 J-2.0432
G3 X-33.7652 Y22.3682 I0.2455 J-2.0867
G3 X-33.9091 Y22.335 I0.4928 J-2.4613
G3 X-34.1178 Y22.2758 I1.4136 J-5.3903
G3 X-34.4923 Y22.1547 I3.2917 J-10.817
G3 X-34.7444 Y22.061 I1.6906 J-4.9321
G3 X-35.0062 Y21.9439 I1.3837 J-3.4461
G3 X-35.1964 Y21.8372 I0.9259 J-1.8732
G3 X-35.3748 Y21.7075 I0.9054 J-1.4331
G3 X-35.5199 Y21.5679 I0.8871 J-1.0667
G3 X-35.6373 Y21.4181 I1.0551 J-0.9477
G3 X-35.7503 Y21.2299 I1.6019 J-1.0903
G3 X-35.7973 Y21.136 I2.3067 J-1.2133
G3 X-35.8288 Y21.0647 I1.2389 J-0.5892
G3 X-35.8627 Y20.9714 I1.211 J-0.4937
G3 X-35.8916 Y20.8695 I1.4365 J-0.462
G3 X-35.9327 Y20.6502 I1.9475 J-0.4786
G3 X-35.9728 Y20.2509 I6.7353 J-0.8783
G3 X-35.9951 Y19.8532 I13.4763 J-0.9526
G3 X-36.0227 Y19.0392 I56.8248 J-2.3359
G3 X-36.0377 Y18.4115 I110.4807 J-2.9576
G3 X-36.0682 Y16.8805 I657.8465 J-13.8711
G2 X-36.085 Y16.0595 I-245.4385 J4.604
G2 X-36.0965 Y15.5596 I-245.4217 J5.4251
G2 X-36.1031 Y15.2918 I-245.4101 J5.9249
G2 X-36.1488 Y13.6874 I-250.3536 J6.3176
G2 X-36.2068 Y12.0838 I-177.8426 J5.6286
G2 X-36.2409 Y11.422 I-30.4224 J1.2376
G3 X-36.2839 Y10.5738 I35.924 J-2.2453
G3 X-36.3325 Y9.0655 I113.8437 J-4.4224
G3 X-36.3632 Y7.6316 I172.7487 J-4.42
G3 X-36.391 Y5.6788 I320.4202 J-5.5375
G3 X-36.4174 Y1.8805 I448.125 J-5.0131
G3 X-36.4201 Y-0.0779 I722.4965 J-1.9585
G3 X-36.4144 Y-2.9421 I722.4991 J0
G1 Z-0.24 F30
G3 X-36.3799 Y-7.7644 I754.6384 J2.9915 F60
G3 X-36.3211 Y-11.9456 I567.326 J5.8746
G3 X-36.2778 Y-14.0949 I443.312 J7.8585
G3 X-36.2339 Y-15.8103 I282.3894 J6.3756
G3 X-36.1744 Y-17.6145 I209.4819 J6.003
G3 X-36.1211 Y-18.8347 I95.8086 J3.5717
G1 X-35.9883 Y-21.4914
G3 X-35.8617 Y-21.6101 I0.1248 J0.0062
G1 X-35.5879 Y-21.6064
G3 X-35.5045 Y-21.6044 I-0.0591 J4.2939
G3 X-35.1119 Y-21.5906 I-3.2504 J97.9113
G3 X-34.7429 Y-21.5766 I-8.1231 J218.293
G3 X-34.1227 Y-21.5521 I-23.9964 J616.7945
G3 X-32.9242 Y-21.5036 I-41.3031 J1034.8546
G3 X-31.1783 Y-21.4312 I-90.2069 J2196.3079
G3 X-30.7245 Y-21.4122 I-103.5986 J2474.3885
G3 X-30.2249 Y-21.3911 I-104.0524 J2474.3694
G3 X-27.1056 Y-21.2573 I-104.552 J2474.3484
G3 X-25.4884 Y-21.1836 I-16.976 J390.0972
G2 X-24.6705 Y-21.1488 I3.809 J-79.9011
G2 X-23.6432 Y-21.1145 I4.7126 J-125.9412
G2 X-22.6159 Y-21.0892 I3.2969 J-112.6979
G2 X-21.9928 Y-21.0813 I0.8362 J-41.5312
G2 X-21.4376 Y-21.0806 I0.3666 J-71.464
G2 X-21.1722 Y-21.0835 I-0.0433 J-16.419
G2 X-20.8578 Y-21.0949 I-0.1688 J-8.9778
G2 X-20.6912 Y-21.1092 I-0.141 J-2.6159
G2 X-20.5328 Y-21.1367 I-0.174 J-1.4722
G2 X-20.4401 Y-21.1661 I-0.1352 J-0.5877
G2 X-20.3701 Y-21.2014 I-0.187 J-0.4581
G2 X-20.2757 Y-21.2668 I-0.4964 J-0.8164
G3 X-20.1839 Y-21.3336 I0.9322 J1.1851
G3 X-20.1055 Y-21.3808 I0.514 J0.7657
G3 X-20.0161 Y-21.4217 I0.3692 J0.689
G3 X-19.9278 Y-21.4487 I0.2395 J0.6246
G3 X-19.8369 Y-21.4634 I0.1537 J0.6626
G3 X-19.7364 Y-21.4667 I0.0781 J0.8426
G3 X-19.6432 Y-21.46 I-0.0271 J1.025
G3 X-19.526 Y-21.4421 I-0.205 J1.7355
G2 X-19.3799 Y-21.4279 I0.153 J-0.8153
G2 X-19.1326 Y-21.44 I0.0178 J-2.1673
G2 X-18.8841 Y-21.4779 I-0.2931 J-2.7526
G2 X-18.625 Y-21.5413 I-0.607 J-3.0425
G3 X-18.3762 Y-21.6083 I1.8037 J6.2045
G3 X-18.1278 Y-21.6646 I1.5175 J6.121
G3 X-17.8755 Y-21.7088 I0.8882 J4.3229
G3 X-17.7578 Y-21.7174 I0.1177 J0.8086
G3 X-17.4857 Y-21.6622 I0 J0.6985
G3 X-17.2334 Y-21.4978 I-0.3325 J0.7861
G3 X-17.0559 Y-21.2548 I-0.5605 J0.596
G3 X-16.9967 Y-20.9942 I-0.5451 J0.2607
G2 X-16.9883 Y-20.8358 I1.4968 J0
G2 X-16.9711 Y-20.7442 I0.5768 J-0.0614
G2 X-16.9356 Y-20.6546 I0.4241 J-0.1159
G2 X-16.881 Y-20.5741 I0.3948 J-0.2088
G2 X-16.807 Y-20.501 I0.4574 J-0.389
G2 X-16.67 Y-20.4003 I0.9214 J-1.1105
G2 X-16.533 Y-20.318 I1.2836 J-1.9821
G2 X-16.2828 Y-20.1854 I3.4799 J-6.2653
G2 X-16.1465 Y-20.1171 I12.3241 J-24.414
G2 X-16.0743 Y-20.0816 I3.4316 J-6.8932
G2 X-15.9773 Y-20.0359 I2.2786 J-4.6996
G2 X-15.9111 Y-20.0066 I1.0243 J-2.228
G2 X-15.768 Y-19.9543 I0.58 J-1.3667
G2 X-15.6722 Y-19.9323 I0.1991 J-0.6464
G2 X-15.5752 Y-19.9248 I0.0975 J-0.6311
G2 X-15.4375 Y-19.9327 I0.0009 J-1.1851
G2 X-15.3327 Y-19.9479 I-0.2205 J-1.898
G2 X-15.0696 Y-19.9965 I-1.967 J-11.3837
G2 X-14.8392 Y-20.047 I-1.0477 J-5.3253
G2 X-14.647 Y-20.0988 I-0.9188 J-3.792
G2 X-14.4338 Y-20.1682 I-1.2288 J-4.1368
G2 X-14.1587 Y-20.272 I-2.4504 J-6.9116
G2 X-13.8857 Y-20.3857 I-3.9909 J-9.9687
G2 X-13.4563 Y-20.576 I-10.6765 J-24.6759
G2 X-13.0754 Y-20.7509 I-18.1303 J-39.9726
G2 X-12.3987 Y-21.0679 I-58.7207 J-126.2452
G3 X-12.0234 Y-21.2423 I15.5532 J32.9745
G3 X-11.798 Y-21.3429 I5.3659 J11.7193
G3 X-11.5518 Y-21.4449 I3.0607 J7.0377
G3 X-11.4052 Y-21.4975 I0.9275 J2.3529
G3 X-11.2492 Y-21.5384 I0.4318 J1.33
G3 X-11.1475 Y-21.5468 I0.0865 J0.4303
G3 X-11.0891 Y-21.5392 I-0.0108 J0.3138
G3 X-11.0346 Y-21.5195 I-0.051 J0.2255
G3 X-10.9859 Y-21.4853 I-0.0983 J0.1917
G3 X-10.9484 Y-21.4395 I-0.1521 J0.1629
G2 X-10.9426 Y-21.4336 I0.0163 J-0.0101
G2 X-10.8966 Y-21.4124 I0.0923 J-0.1399
G2 X-10.8357 Y-21.4012 I0.0866 J-0.3013
G2 X-10.7414 Y-21.4006 I0.0513 J-0.6228
G2 X-10.6447 Y-21.4136 I-0.0521 J-0.7543
G2 X-10.5441 Y-21.4403 I-0.1667 J-0.8306
G2 X-10.4433 Y-21.4816 I-0.252 J-0.758
G2 X-10.3635 Y-21.5289 I-0.2671 J-0.5426
G3 X-10.1258 Y-21.6814 I2.0148 J2.8766
G3 X-9.7947 Y-21.8628 I3.2298 J5.505
G3 X-9.4659 Y-22.0209 I3.586 J7.0347
G3 X-9.0846 Y-22.1844 I4.2279 J9.3364
G3 X-8.6974 Y-22.3326 I4.081 J10.0788
G3 X-8.3082 Y-22.4648 I3.6298 J10.0499
G3 X-7.9011 Y-22.5848 I3.0023 J9.4333
G3 X-7.5416 Y-22.673 I1.9648 J7.2327
G2 X-7.1021 Y-22.7735 I-5.4563 J-24.8826
G2 X-6.7401 Y-22.8637 I-4.0441 J-16.9986
G2 X-6.5707 Y-22.9092 I-2.937 J-11.271
G2 X-6.4619 Y-22.9406 I-1.3146 J-4.7503
G2 X-6.3532 Y-22.9762 I-0.7147 J-2.3694
G2 X-6.3358 Y-22.9838 I-0.043 J-0.1218
G3 X-6.2526 Y-23.0217 I0.3576 J0.6751
G3 X-6.0979 Y-23.0761 I1.0098 J2.6235
G3 X-5.9424 Y-23.122 I1.103 J3.4543
G3 X-5.7953 Y-23.158 I0.8218 J3.0361
G2 X-5.6663 Y-23.1925 I-0.3178 J-1.4468
G2 X-5.557 Y-23.2332 I-0.3484 J-1.1015
G2 X-5.5092 Y-23.2557 I-0.3187 J-0.7385
G2 X-5.481 Y-23.2719 I-0.1619 J-0.3164
G2 X-5.4651 Y-23.2833 I-0.09 J-0.1422
G3 X-5.4197 Y-23.3294 I0.1499 J0.1023
G3 X-5.3586 Y-23.3638 I0.1997 J0.2836
G3 X-5.3035 Y-23.3841 I0.2033 J0.4664
G3 X-5.232 Y-23.4028 I0.2699 J0.886
G3 X-5.0839 Y-23.4263 I0.2744 J1.2517
G3 X-4.9113 Y-23.4348 I0.1726 J1.7432
G3 X-4.7649 Y-23.4273 I0 J1.4412
G3 X-4.6545 Y-23.4079 I-0.0785 J0.7689
G3 X-4.5334 Y-23.3658 I-0.1782 J0.7071
G3 X-4.4075 Y-23.2973 I-0.3921 J0.8713
G3 X-4.2951 Y-23.216 I-0.7063 J1.0945
G3 X-4.1385 Y-23.0805 I-1.9377 J2.3982
G3 X-4.0088 Y-22.956 I-3.42 J3.695
G3 X-3.7812 Y-22.7254 I-11.7336 J11.8024
G2 X-3.4832 Y-22.4266 I9.9085 J-9.5859
G2 X-3.1519 Y-22.1135 I11.2053 J-11.5249
G2 X-2.8277 Y-21.8238 I10.7443 J-11.6969
G2 X-2.5342 Y-21.5766 I8.1392 J-9.3627
G2 X-2.2332 Y-21.3406 I6.0632 J-7.4267
G2 X-2.0327 Y-21.1992 I2.4149 J-3.2113
G2 X-1.9287 Y-21.1342 I1.3564 J-2.0537
G2 X-1.8635 Y-21.099 I0.4907 J-0.8301
G2 X-1.8009 Y-21.0735 I0.211 J-0.4286
G3 X-1.7143 Y-21.0603 I-0.0001 J0.2916
G3 X-1.637 Y-21.0156 I-0.0605 J0.1939
G3 X-1.5848 Y-20.9414 I-0.1458 J0.1578
G3 X-1.559 Y-20.8498 I-0.3518 J0.1488
G3 X-1.5521 Y-20.7674 I-0.6169 J0.0933
G3 X-1.5518 Y-20.7351 I-1.8414 J0.0323
G3 X-1.5544 Y-20.636 I-1.8416 J0
G3 X-1.5629 Y-20.5194 I-3.1676 J-0.1707
G3 X-1.5834 Y-20.3171 I-9.8323 J-0.894
G2 X-1.6682 Y-19.5131 I65.4089 J7.3084
G2 X-1.7215 Y-18.9269 I34.7829 J3.4544
G2 X-1.7684 Y-18.2726 I31.2397 J2.5721
G2 X-1.8036 Y-17.5865 I34.3111 J2.1032
G2 X-1.8263 Y-16.8996 I41.7564 J1.7228
G2 X-1.8441 Y-15.9533 I79.1162 J1.9617
G2 X-1.8519 Y-15.1049 I117.7021 J1.5102
G2 X-1.8549 Y-14.4575 I328.411 J1.8464
G2 X-1.8564 Y-13.9575 I328.414 J1.199
G2 X-1.8568 Y-13.6872 I328.4154 J0.699
G1 X-1.862 Y-9.7001
G3 X-1.8962 Y-9.6145 I-0.125 J-0.0002
G1 X-2.3764 Y-9.106
G1 X-2.8223 Y-8.6343
G1 X-2.8132 Y-7.7596
G3 X-2.8124 Y-7.6111 I-14.5894 J0.1485
G3 X-2.8135 Y-7.4325 I-14.5902 J0
G3 X-2.8196 Y-7.2385 I-5.0521 J-0.0619
G3 X-2.838 Y-7.014 I-3.6028 J-0.1827
G3 X-2.8661 Y-6.8302 I-2.3987 J-0.2725
G3 X-2.9084 Y-6.649 I-2.3225 J-0.447
G3 X-2.9731 Y-6.4415 I-3.1612 J-0.8709
G3 X-3.0383 Y-6.2661 I-4.2175 J-1.4689
G3 X-3.156 Y-5.9794 I-11.6054 J-4.5956
G2 X-3.319 Y-5.5883 I28.3242 J12.0378
G2 X-3.4114 Y-5.3548 I10.0781 J4.1203
G2 X-3.507 Y-5.0897 I7.0075 J2.678
G2 X-3.5711 Y-4.8849 I4.1665 J1.4154
G2 X-3.6243 Y-4.6779 I3.792 J1.0851
G2 X-3.6696 Y-4.4531 I4.4058 J1.006
G2 X-3.7013 Y-4.2514 I5.5804 J0.9795
G2 X-3.741 Y-3.9382 I13.2434 J1.8354
G3 X-3.7678 Y-3.7395 I-4.8932 J-0.5607
G3 X-3.794 Y-3.5993 I-2.3977 J-0.3742
G3 X-3.8331 Y-3.4492 I-1.8288 J-0.3967
G3 X-3.8782 Y-3.3242 I-1.2779 J-0.3904
G3 X-3.9362 Y-3.2038 I-1.1647 J-0.487
G3 X-4.0102 Y-3.0834 I-1.2524 J-0.6873
G3 X-4.0879 Y-2.979 I-1.3996 J-0.9593
G3 X-4.1987 Y-2.8489 I-2.3572 J-1.8969
G2 X-4.4046 Y-2.5866 I1.8055 J1.6291
G2 X-4.5617 Y-2.315 I1.7922 J1.2179
G2 X-4.6722 Y-2.0352 I1.7843 J0.8661
G2 X-4.7283 Y-1.7781 I1.4756 J0.4567
G2 X-4.7392 Y-1.6094 I1.2951 J0.1687
G2 X-4.7362 Y-1.5202 I1.3061 J0
G2 X-4.6973 Y-1.3124 I0.9087 J-0.0622
G2 X-4.6072 Y-1.1211 I0.7268 J-0.2256
G2 X-4.4789 Y-0.9775 I0.5416 J-0.3546
G3 X-4.3445 Y-0.8522 I-1.0144 J1.2231
G3 X-4.2339 Y-0.7209 I-0.9888 J0.9449
G3 X-4.1868 Y-0.6516 I-0.8519 J0.6305
G3 X-4.1537 Y-0.5918 I-0.5488 J0.3426
G3 X-4.1258 Y-0.5197 I-0.4187 J0.2034
G3 X-4.1161 Y-0.4519 I-0.2305 J0.0678
G1 X-4.1161 Y-0.4519
G3 X-4.1207 Y-0.4087 I-0.2033 J0
G3 X-4.1332 Y-0.3626 I-0.4587 J-0.0997
G3 X-4.1473 Y-0.3235 I-0.6832 J-0.2233
G3 X-4.1689 Y-0.2712 I-1.3708 J-0.5376
G3 X-4.2146 Y-0.1733 I-2.0617 J-0.9014
G3 X-4.2886 Y-0.0295 I-4.6658 J-2.3129
G3 X-4.4552 Y0.2662 I-6.912 J-3.698
G3 X-4.6728 Y0.6194 I-10.1244 J-5.9943
G2 X-4.8656 Y0.9263 I17.2635 J11.0611
G2 X-4.9581 Y1.0824 I4.4531 J2.7434
G2 X-5.0571 Y1.2707 I2.7672 J1.575
G2 X-5.1111 Y1.3979 I1.2676 J0.6133
G2 X-5.1502 Y1.5274 I1.0643 J0.3914
G2 X-5.175 Y1.667 I1.2039 J0.2859
G2 X-5.1848 Y1.7886 I1.6129 J0.192
G2 X-5.1896 Y2.0107 I5.1204 J0.2221
G3 X-5.1923 Y2.2391 I-9.6033 J0
G3 X-5.198 Y2.3559 I-2.4178 J-0.0575
G3 X-5.2155 Y2.498 I-1.4088 J-0.1018
G3 X-5.2407 Y2.5929 I-0.5605 J-0.0983
G3 X-5.289 Y2.6877 I-0.4032 J-0.1455
G3 X-5.3579 Y2.7649 I-0.3213 J-0.2176
G3 X-5.4253 Y2.8129 I-0.3008 J-0.3513
G3 X-5.5311 Y2.8677 I-0.5927 J-1.0139
G2 X-5.6239 Y2.9173 I0.3484 J0.7648
G2 X-5.6918 Y2.9664 I0.2977 J0.4826
G2 X-5.7127 Y2.9855 I0.2338 J0.2771
G2 X-5.6949 Y3.0108 I0.4385 J-0.2892
G2 X-5.651 Y3.0667 I1.1836 J-0.885
G2 X-5.5581 Y3.1728 I1.8664 J-1.5408
G2 X-5.4226 Y3.3126 I3.3065 J-3.0703
G2 X-5.2811 Y3.4464 I3.1776 J-3.2169
G2 X-5.1734 Y3.5385 I1.644 J-1.8143
G2 X-5.1168 Y3.582 I0.9428 J-1.1699
G2 X-5.0834 Y3.6045 I0.3193 J-0.4373
G2 X-5.0638 Y3.6153 I0.1155 J-0.1857
G3 X-4.9959 Y3.6464 I-0.0197 J0.1327
G3 X-4.962 Y3.686 I-0.1133 J0.1313
G3 X-4.9468 Y3.7145 I-0.1986 J0.1239
G3 X-4.9334 Y3.7482 I-0.4183 J0.1865
G3 X-4.915 Y3.8082 I-0.6862 J0.243
G3 X-4.8929 Y3.903 I-1.9141 J0.497
G3 X-4.8581 Y4.1006 I-3.2109 J0.6669
G3 X-4.8251 Y4.3711 I-6.0963 J0.8815
G2 X-4.8078 Y4.5432 I169.1024 J-16.8592
G2 X-4.7776 Y4.8422 I509.5947 J-51.3298
G3 X-4.7406 Y5.2106 I-257.2907 J26.0685
G3 X-4.726 Y5.3588 I-41.5255 J4.1473
G3 X-4.7043 Y5.5953 I-27.3607 J2.634
G3 X-4.6926 Y5.7413 I-10.3422 J0.9055
G3 X-4.6824 Y5.9073 I-6.7705 J0.4967
G3 X-4.6791 Y6.0187 I-2.9694 J0.1448
G3 X-4.679 Y6.0416 I-2.0321 J0.0228
G3 X-4.6812 Y6.1366 I-2.0322 J0
G3 X-4.6889 Y6.2229 I-1.0245 J-0.048
G3 X-4.7054 Y6.3098 I-0.7704 J-0.1017
G3 X-4.7295 Y6.3832 I-0.5275 J-0.132
G3 X-4.7613 Y6.4478 I-0.4726 J-0.1928
G3 X-4.8039 Y6.5112 I-0.5238 J-0.3058
G3 X-4.8393 Y6.5539 I-0.5888 J-0.4519
G3 X-4.8986 Y6.6175 I-1.5363 J-1.373
G3 X-4.908 Y6.6272 I-3.1456 J-3.0596
G3 X-4.9248 Y6.6443 I-10.1176 J-9.9015
G2 X-4.9444 Y6.6643 I28.402 J27.8898
G2 X-4.9521 Y6.6722 I4.4851 J4.398
G2 X-4.9855 Y6.7067 I3.6944 J3.6099
G2 X-5.0111 Y6.7337 I2.2852 J2.1919
G2 X-5.1919 Y6.9433 I2.4519 J2.2969
G2 X-5.3133 Y7.1143 I1.5495 J1.2285
G2 X-5.4204 Y7.3099 I1.4974 J0.9477
G2 X-5.5065 Y7.5267 I1.7455 J0.8182
G2 X-5.5687 Y7.7547 I2.2057 J0.7242
G2 X-5.625 Y8.0695 I4.0606 J0.8886
G2 X-5.659 Y8.3687 I5.8878 J0.8206
G2 X-5.6919 Y8.8308 I13.8442 J1.2188
G2 X-5.7071 Y9.3889 I10.2344 J0.5581
G2 X-5.7062 Y9.5242 I10.2497 J0
G2 X-5.6753 Y10.101 I7.1482 J-0.0943
G2 X-5.5945 Y10.6612 I5.7356 J-0.5409
G2 X-5.4841 Y11.0847 I3.4276 J-0.6674
G2 X-5.3168 Y11.48 I2.4732 J-0.8133
G2 X-5.1435 Y11.7373 I1.2505 J-0.6555
G2 X-5.0361 Y11.8479 I0.8677 J-0.7352
G2 X-4.9296 Y11.93 I0.5947 J-0.6616
G2 X-4.8119 Y11.9941 I0.4465 J-0.6802
G2 X-4.6901 Y12.0359 I0.3063 J-0.6935
G2 X-4.6472 Y12.0452 I0.1689 J-0.673
G2 X-4.5261 Y12.066 I0.8559 J-4.6353
G2 X-4.4078 Y12.0838 I1.2878 J-8.1594
G2 X-4.2369 Y12.1073 I2.4093 J-16.8472
G2 X-3.8749 Y12.1525 I3.1462 J-23.713
G2 X-3.4667 Y12.1976 I3.524 J-30.0713
G3 X-2.9459 Y12.2672 I-0.905 J8.7475
G3 X-2.5457 Y12.349 I-0.8533 J5.1934
G3 X-2.1439 Y12.4693 I-0.9938 J4.0525
G3 X-1.8231 Y12.6058 I-0.9499 J2.6764
G3 X-1.522 Y12.7842 I-1.1061 J2.211
G3 X-1.2661 Y12.9917 I-1.2389 J1.7895
G3 X-1.0487 Y13.2293 I-1.5221 J1.6108
G3 X-0.8484 Y13.5204 I-2.1174 J1.6716
G3 X-0.7506 Y13.6923 I-4.1837 J2.4919
G3 X-0.6821 Y13.8275 I-2.4651 J1.3357
G3 X-0.6184 Y13.9751 I-2.0685 J0.9801
G3 X-0.5719 Y14.1099 I-1.6484 J0.6436
G3 X-0.5366 Y14.2484 I-1.6244 J0.4877
G3 X-0.5117 Y14.3957 I-1.8272 J0.3845
G3 X-0.4984 Y14.5362 I-2.1169 J0.271
G3 X-0.4923 Y14.7103 I-3.3196 J0.2034
G2 X-0.4802 Y14.9317 I2.4239 J-0.0214
G2 X-0.4398 Y15.2298 I4.3395 J-0.4369
G2 X-0.3786 Y15.5235 I4.0863 J-0.6986
G2 X-0.3221 Y15.7087 I1.7417 J-0.4294
G3 X-0.2657 Y15.8704 I-5.7595 J2.1005
G3 X-0.2361 Y15.9672 I-1.9473 J0.6492
G3 X-0.2098 Y16.0807 I-1.2476 J0.3486
G3 X-0.2004 Y16.1646 I-0.5851 J0.108
G3 X-0.2 Y16.183 I-0.4554 J0.0185
G3 X-0.2058 Y16.2552 I-0.4558 J0
G3 X-0.2291 Y16.3379 I-0.3689 J-0.0592
G3 X-0.2639 Y16.4044 I-0.3715 J-0.1525
G3 X-0.3182 Y16.477 I-0.5836 J-0.3796
G2 X-0.3749 Y16.5457 I1.9626 J1.6766
G2 X-0.408 Y16.5896 I0.8216 J0.6542
G2 X-0.4429 Y16.643 I0.6305 J0.4502
G2 X-0.4657 Y16.686 I0.4197 J0.2503
G2 X-0.4969 Y16.78 I0.3796 J0.1778
G2 X-0.5108 Y16.9131 I0.6809 J0.1389
G2 X-0.5109 Y16.9231 I1.1872 J0.01
G2 X-0.5033 Y17.0574 I1.1872 J0
G2 X-0.4621 Y17.3355 I4.1608 J-0.4738
G2 X-0.4174 Y17.5616 I7.6835 J-1.4024
G2 X-0.3058 Y18.0684 I38.2635 J-8.1572
G3 X-0.2946 Y18.1218 I-1.6538 J0.3756
G3 X-0.2889 Y18.1563 I-0.5835 J0.1129
G3 X-0.2853 Y18.2062 I-0.4236 J0.0564
G3 X-0.2852 Y18.2101 I-0.2564 J0.0039
G3 X-0.2886 Y18.2515 I-0.2564 J0
G3 X-0.3055 Y18.3073 I-0.2173 J-0.0356
G3 X-0.3381 Y18.3572 I-0.1815 J-0.0827
G3 X-0.3821 Y18.3947 I-0.1567 J-0.1396
G3 X-0.4331 Y18.4203 I-0.1522 J-0.2392
G3 X-0.5187 Y18.4426 I-0.1434 J-0.3751
G3 X-0.6704 Y18.4573 I-0.2296 J-1.5787
G3 X-0.7825 Y18.4608 I-0.156 J-3.1904
G3 X-1.0597 Y18.4627 I-0.2772 J-20.1835
G2 X-1.2456 Y18.4653 I0 J6.542
G2 X-1.3767 Y18.4717 I0.0943 J3.3158
G2 X-1.5087 Y18.4844 I0.159 J2.3354
G2 X-1.5972 Y18.4991 I0.1405 J1.1214
G2 X-1.6799 Y18.521 I0.1563 J0.7554
G2 X-1.7296 Y18.5415 I0.1102 J0.3382
G2 X-1.769 Y18.5663 I0.11 J0.2185
G2 X-1.7929 Y18.5893 I0.0917 J0.1189
G3 X-1.8655 Y18.6594 I-0.3516 J-0.2918
G3 X-1.9496 Y18.7095 I-0.2512 J-0.3259
G3 X-2.0466 Y18.7413 I-0.2039 J-0.4589
G3 X-2.1817 Y18.7617 I-0.225 J-1.0322
G3 X-2.3125 Y18.7678 I-0.1457 J-1.7061
G3 X-2.5289 Y18.765 I-0.0427 J-4.9129
G3 X-2.7211 Y18.7559 I0.2957 J-8.3609
G3 X-3.065 Y18.7337 I1.5811 J-27.06
G3 X-3.5504 Y18.6864 I0.668 J-9.3826
G3 X-3.9455 Y18.6248 I0.7705 J-6.2364
G3 X-4.1381 Y18.5844 I0.9097 J-4.8187
G3 X-4.2932 Y18.5445 I0.7201 J-3.1217
G3 X-4.4496 Y18.4944 I0.6708 J-2.3619
G3 X-4.5624 Y18.4479 I0.4347 J-1.2151
G2 X-4.6402 Y18.4158 I-0.3846 J0.8208
G2 X-4.7784 Y18.3706 I-0.8447 J2.3486
G2 X-4.9159 Y18.333 I-0.9892 J3.3517
G2 X-5.0883 Y18.2927 I-1.3003 J5.1739
G2 X-5.4582 Y18.2242 I-1.3371 J6.1817
G2 X-5.7985 Y18.1828 I-0.8067 J5.2126
G1 X-6.4869 Y18.1217
G1 X-6.4489 Y18.3548
G1 X-6.3854 Y18.7471
G3 X-6.3838 Y18.7671 I-0.1234 J0.02
G3 X-6.5088 Y18.8921 I-0.125 J0
G1 X-7.5438 Y18.8921
G2 X-8.2781 Y18.9181 I0 J10.3504
G2 X-8.7866 Y18.9609 I1.4022 J19.716
G2 X-9.2836 Y19.0155 I1.9108 J19.6732
G2 X-9.2915 Y19.0165 I2.4077 J19.6186
G2 X-10.3011 Y19.1627 I2.9356 J23.8402
G2 X-11.3968 Y19.3671 I4.7051 J28.2575
G3 X-11.739 Y19.4258 I-1.0354 J-5.0073
G3 X-12.01 Y19.4508 I-0.419 J-3.0619
G3 X-12.2851 Y19.4467 I-0.1049 J-2.1881
G3 X-12.4693 Y19.4134 I0.0723 J-0.9275
G2 X-12.5876 Y19.3885 I-0.2327 J0.8114
G2 X-12.7863 Y19.3708 I-0.2869 J2.0982
G2 X-12.9869 Y19.3712 I-0.0953 J2.2864
G2 X-13.1368 Y19.3866 I0.0616 J1.3387
G3 X-13.3317 Y19.4065 I-0.2724 J-1.7035
G3 X-13.4794 Y19.4012 I-0.041 J-0.9121
G3 X-13.5549 Y19.3878 I0.0759 J-0.6456
G3 X-13.6165 Y19.3675 I0.0911 J-0.3804
G3 X-13.6815 Y19.3297 I0.1174 J-0.2769
G3 X-13.7323 Y19.2736 I0.1264 J-0.1656
G2 X-13.7737 Y19.2371 I-0.0809 J0.05
G2 X-13.8698 Y19.2187 I-0.086 J0.1884
G2 X-13.9781 Y19.2468 I0.0133 J0.2731
G2 X-14.0616 Y19.3132 I0.1131 J0.2278
G3 X-14.1266 Y19.3708 I-0.2121 J-0.1742
G3 X-14.2321 Y19.4272 I-0.4337 J-0.6835
G3 X-14.3336 Y19.4674 I-0.5465 J-1.2322
G3 X-14.4846 Y19.5158 I-0.9902 J-2.8314
G3 X-14.7815 Y19.5919 I-1.32 J-4.5293
G3 X-15.2353 Y19.6827 I-2.368 J-10.6595
G3 X-15.6913 Y19.7562 I-2.4755 J-13.9029
G3 X-16.2121 Y19.8239 I-2.617 J-18.1114
G3 X-16.7594 Y19.8788 I-2.146 J-18.6109
G3 X-17.276 Y19.915 I-1.4161 J-16.5333
G2 X-17.6822 Y19.9421 I0.8932 J16.4536
G2 X-17.9668 Y19.9696 I0.6458 J8.1641
G2 X-18.264 Y20.011 I0.6942 J6.0708
G2 X-18.495 Y20.0563 I0.6175 J3.7554
G2 X-18.7211 Y20.1167 I0.7247 J3.1687
G2 X-18.9288 Y20.189 I0.8435 J2.7576
G2 X-19.1206 Y20.2718 I1.1011 J2.8128
G2 X-19.3413 Y20.3844 I1.7974 J3.7952
G3 X-19.4109 Y20.4116 I-0.1389 J-0.2536
G3 X-19.5429 Y20.438 I-0.3629 J-1.4699
G3 X-19.6674 Y20.4543 I-0.4237 J-2.7458
G3 X-19.8517 Y20.4715 I-0.6674 J-6.1609
G3 X-20.2405 Y20.4936 I-0.713 J-9.118
G3 X-20.7061 Y20.5019 I-0.4656 J-13.1276
G2 X-21.1094 Y20.5047 I0 J28.6232
G2 X-21.316 Y20.5104 I0.1072 J7.6057
G2 X-21.5564 Y20.5266 I0.1916 J4.6418
G2 X-21.7115 Y20.5472 I0.1883 J2.0155
G2 X-21.8614 Y20.5805 I0.2678 J1.5559
G2 X-22.0045 Y20.6275 I0.4029 J1.4685
G2 X-22.124 Y20.6782 I0.6707 J1.7461
G2 X-22.3222 Y20.7758 I2.1975 J4.7151
G3 X-22.4513 Y20.8417 I-5.205 J-10.0323
G3 X-22.5235 Y20.8769 I-1.5177 J-3.0195
G3 X-22.6241 Y20.9218 I-1.0441 J-2.2065
G3 X-22.7036 Y20.9523 I-0.5421 J-1.2934
G3 X-22.8872 Y20.9989 I-0.3561 J-1.0194
G3 X-23.0752 Y21.0124 I-0.1706 J-1.0539
G3 X-23.2583 Y20.9977 I0.0233 J-1.4321
G3 X-23.5526 Y20.9436 I0.5818 J-3.9946
G3 X-23.685 Y20.9128 I1.5197 J-6.8351
G3 X-23.8795 Y20.8643 I3.6354 J-14.9737
G3 X-24.0229 Y20.827 I5.7017 J-22.2191
G3 X-24.2949 Y20.7548 I21.1871 J-80.4042
G2 X-24.3289 Y20.7521 I-0.0243 J0.091
G2 X-24.3534 Y20.7596 I0.0068 J0.0656
G2 X-24.3865 Y20.7845 I0.0643 J0.1197
G2 X-24.4514 Y20.8654 I0.3909 J0.3804
G2 X-24.509 Y20.9651 I0.8395 J0.5516
G2 X-24.5934 Y21.1485 I2.5585 J1.2887
G2 X-24.6655 Y21.3319 I4.236 J1.7717
G2 X-24.7688 Y21.6244 I10.5154 J3.8769
G3 X-24.8109 Y21.7101 I-0.3462 J-0.1169
G3 X-24.873 Y21.7776 I-0.2462 J-0.164
G3 X-24.9536 Y21.8251 I-0.2097 J-0.2636
G3 X-25.0624 Y21.8593 I-0.2452 J-0.5911
G3 X-25.1671 Y21.8764 I-0.2164 J-0.9923
G3 X-25.336 Y21.89 I-0.3102 J-2.8039
G3 X-25.4877 Y21.8952 I-0.2376 J-4.7381
G3 X-25.7508 Y21.8975 I-0.2631 J-14.522
G2 X-26.0637 Y21.9054 I0 J6.2007
G2 X-26.2616 Y21.9231 I0.1296 J2.5638
G2 X-26.4878 Y21.9641 I0.2867 J2.2294
G2 X-26.7304 Y22.0331 I0.6118 J2.6102
G2 X-26.9697 Y22.1232 I1.1455 J3.4071
G2 X-27.3343 Y22.2855 I3.3094 J7.9273
G2 X-27.6438 Y22.4365 I6.0549 J12.7967
G2 X-28.2314 Y22.737 I23.2249 J46.1465
G3 X-28.4158 Y22.8145 I-0.5687 J-1.0949
G3 X-28.6666 Y22.8804 I-0.6771 J-2.0659
G3 X-28.9086 Y22.9163 I-0.4788 J-2.3943
G3 X-29.1303 Y22.9255 I-0.1925 J-1.9751
G3 X-29.2656 Y22.9175 I0.0227 J-1.5414
G3 X-29.37 Y22.9003 I0.0898 J-0.8711
G3 X-29.4833 Y22.8624 I0.1331 J-0.5856
G3 X-29.5645 Y22.8076 I0.1184 J-0.2631
G2 X-29.7467 Y22.6545 I-1.2718 J1.3278
G2 X-30.0093 Y22.4809 I-1.8565 J2.5231
G2 X-30.2726 Y22.3395 I-1.8483 J3.1274
G2 X-30.5483 Y22.2195 I-1.6042 J3.3081
G2 X-30.8316 Y22.1247 I-1.1535 J2.9767
G2 X-31.043 Y22.0789 I-0.4707 J1.6613
G2 X-31.15 Y22.0676 I-0.1789 J1.1775
G2 X-31.2242 Y22.0676 I-0.0372 J0.6157
G2 X-31.2937 Y22.0779 I0.0239 J0.3974
G2 X-31.3239 Y22.0895 I0.0298 J0.1237
G3 X-31.3851 Y22.1159 I-0.1888 J-0.3529
G3 X-31.5042 Y22.1517 I-0.6016 J-1.7881
G3 X-31.6176 Y22.1795 I-0.8345 J-3.1545
G3 X-31.7803 Y22.2143 I-1.4929 J-6.5885
G3 X-32.1247 Y22.2769 I-1.8879 J-9.3998
G3 X-32.5211 Y22.3351 I-2.0287 J-12.4373
G3 X-32.8517 Y22.3755 I-2.5675 J-19.656
G3 X-33.0446 Y22.3945 I-0.7476 J-6.5828
G3 X-33.2663 Y22.4076 I-0.3706 J-4.4095
G3 X-33.4317 Y22.4074 I-0.0806 J-2.3935
G3 X-33.5982 Y22.3947 I0.0725 J-2.0432
G3 X-33.7652 Y22.3682 I0.2455 J-2.0867
G3 X-33.9091 Y22.335 I0.4928 J-2.4613
G3 X-34.1178 Y22.2758 I1.4136 J-5.3903
G3 X-34.4923 Y22.1547 I3.2917 J-10.817
G3 X-34.7444 Y22.061 I1.6906 J-4.9321
G3 X-35.0062 Y21.9439 I1.3837 J-3.4461
G3 X-35.1964 Y21.8372 I0.9259 J-1.8732
G3 X-35.3748 Y21.7075 I0.9054 J-1.4331
G3 X-35.5199 Y21.5679 I0.8871 J-1.0667
G3 X-35.6373 Y21.4181 I1.0551 J-0.9477
G3 X-35.7503 Y21.2299 I1.6019 J-1.0903
G3 X-35.7973 Y21.136 I2.3067 J-1.2133
G3 X-35.8288 Y21.0647 I1.2389 J-0.5892
G3 X-35.8627 Y20.9714 I1.211 J-0.4937
G3 X-35.8916 Y20.8695 I1.4365 J-0.462
G3 X-35.9327 Y20.6502 I1.9475 J-0.4786
G3 X-35.9728 Y20.2509 I6.7353 J-0.8783
G3 X-35.9951 Y19.8532 I13.4763 J-0.9526
G3 X-36.0227 Y19.0392 I56.8248 J-2.3359
G3 X-36.0377 Y18.4115 I110.4807 J-2.9576
G3 X-36.0682 Y16.8805 I657.8465 J-13.8711
G2 X-36.085 Y16.0595 I-245.4385 J4.604
G2 X-36.0965 Y15.5596 I-245.4217 J5.4251
G2 X-36.1031 Y15.2918 I-245.4101 J5.9249
G2 X-36.1488 Y13.6874 I-250.3536 J6.3176
G2 X-36.2068 Y12.0838 I-177.8426 J5.6286
G2 X-36.2409 Y11.422 I-30.4224 J1.2376
G3 X-36.2839 Y10.5738 I35.924 J-2.2453
G3 X-36.3325 Y9.0655 I113.8437 J-4.4224
G3 X-36.3632 Y7.6316 I172.7487 J-4.42
G3 X-36.391 Y5.6788 I320.4202 J-5.5375
G3 X-36.4174 Y1.8805 I448.125 J-5.0131
G3 X-36.4201 Y-0.0779 I722.4965 J-1.9585
G3 X-36.4144 Y-2.9421 I722.4991 J0
G1 Z-0.36 F30
G3 X-36.3799 Y-7.7644 I754.6384 J2.9915 F60
G3 X-36.3211 Y-11.9456 I567.326 J5.8746
G3 X-36.2778 Y-14.0949 I443.312 J7.8585
G3 X-36.2339 Y-15.8103 I282.3894 J6.3756
G3 X-36.1744 Y-17.6145 I209.4819 J6.003
G3 X-36.1211 Y-18.8347 I95.8086 J3.5717
G1 X-35.9883 Y-21.4914
G3 X-35.8617 Y-21.6101 I0.1248 J0.0062
G1 X-35.5879 Y-21.6064
G3 X-35.5045 Y-21.6044 I-0.0591 J4.2939
G3 X-35.1119 Y-21.5906 I-3.2504 J97.9113
G3 X-34.7429 Y-21.5766 I-8.1231 J218.293
G3 X-34.1227 Y-21.5521 I-23.9964 J616.7945
G3 X-32.9242 Y-21.5036 I-41.3031 J1034.8546
G3 X-31.1783 Y-21.4312 I-90.2069 J2196.3079
G3 X-30.7245 Y-21.4122 I-103.5986 J2474.3885
G1 Z-0.3 F30
G3 X-30.2249 Y-21.3911 I-104.0524 J2474.3694 F60
G1 Z-0.36 F30
G3 X-27.1056 Y-21.2573 I-104.552 J2474.3484 F60
G3 X-25.4884 Y-21.1836 I-16.976 J390.0972
G2 X-24.6705 Y-21.1488 I3.809 J-79.9011
G2 X-23.6432 Y-21.1145 I4.7126 J-125.9412
G2 X-22.6159 Y-21.0892 I3.2969 J-112.6979
G2 X-21.9928 Y-21.0813 I0.8362 J-41.5312
G2 X-21.4376 Y-21.0806 I0.3666 J-71.464
G2 X-21.1722 Y-21.0835 I-0.0433 J-16.419
G2 X-20.8578 Y-21.0949 I-0.1688 J-8.9778
G2 X-20.6912 Y-21.1092 I-0.141 J-2.6159
G2 X-20.5328 Y-21.1367 I-0.174 J-1.4722
G2 X-20.4401 Y-21.1661 I-0.1352 J-0.5877
G2 X-20.3701 Y-21.2014 I-0.187 J-0.4581
G2 X-20.2757 Y-21.2668 I-0.4964 J-0.8164
G3 X-20.1839 Y-21.3336 I0.9322 J1.1851
G3 X-20.1055 Y-21.3808 I0.514 J0.7657
G3 X-20.0161 Y-21.4217 I0.3692 J0.689
G3 X-19.9278 Y-21.4487 I0.2395 J0.6246
G3 X-19.8369 Y-21.4634 I0.1537 J0.6626
G3 X-19.7364 Y-21.4667 I0.0781 J0.8426
G3 X-19.6432 Y-21.46 I-0.0271 J1.025
G3 X-19.526 Y-21.4421 I-0.205 J1.7355
G2 X-19.3799 Y-21.4279 I0.153 J-0.8153
G2 X-19.1326 Y-21.44 I0.0178 J-2.1673
G2 X-18.8841 Y-21.4779 I-0.2931 J-2.7526
G2 X-18.625 Y-21.5413 I-0.607 J-3.0425
G3 X-18.3762 Y-21.6083 I1.8037 J6.2045
G3 X-18.1278 Y-21.6646 I1.5175 J6.121
G3 X-17.8755 Y-21.7088 I0.8882 J4.3229
G3 X-17.7578 Y-21.7174 I0.1177 J0.8086
G3 X-17.4857 Y-21.6622 I0 J0.6985
G3 X-17.2334 Y-21.4978 I-0.3325 J0.7861
G3 X-17.0559 Y-21.2548 I-0.5605 J0.596
G3 X-16.9967 Y-20.9942 I-0.5451 J0.2607
G2 X-16.9883 Y-20.8358 I1.4968 J0
G2 X-16.9711 Y-20.7442 I0.5768 J-0.0614
G2 X-16.9356 Y-20.6546 I0.4241 J-0.1159
G2 X-16.881 Y-20.5741 I0.3948 J-0.2088
G2 X-16.807 Y-20.501 I0.4574 J-0.389
G2 X-16.67 Y-20.4003 I0.9214 J-1.1105
G2 X-16.533 Y-20.318 I1.2836 J-1.9821
G2 X-16.2828 Y-20.1854 I3.4799 J-6.2653
G2 X-16.1465 Y-20.1171 I12.3241 J-24.414
G2 X-16.0743 Y-20.0816 I3.4316 J-6.8932
G2 X-15.9773 Y-20.0359 I2.2786 J-4.6996
G2 X-15.9111 Y-20.0066 I1.0243 J-2.228
G2 X-15.768 Y-19.9543 I0.58 J-1.3667
G2 X-15.6722 Y-19.9323 I0.1991 J-0.6464
G2 X-15.5752 Y-19.9248 I0.0975 J-0.6311
G2 X-15.4375 Y-19.9327 I0.0009 J-1.1851
G2 X-15.3327 Y-19.9479 I-0.2205 J-1.898
G2 X-15.0696 Y-19.9965 I-1.967 J-11.3837
G2 X-14.8392 Y-20.047 I-1.0477 J-5.3253
G2 X-14.647 Y-20.0988 I-0.9188 J-3.792
G2 X-14.4338 Y-20.1682 I-1.2288 J-4.1368
G2 X-14.1587 Y-20.272 I-2.4504 J-6.9116
G2 X-13.8857 Y-20.3857 I-3.9909 J-9.9687
G2 X-13.4563 Y-20.576 I-10.6765 J-24.6759
G2 X-13.0754 Y-20.7509 I-18.1303 J-39.9726
G2 X-12.3987 Y-21.0679 I-58.7207 J-126.2452
G3 X-12.0234 Y-21.2423 I15.5532 J32.9745
G3 X-11.798 Y-21.3429 I5.3659 J11.7193
G3 X-11.5518 Y-21.4449 I3.0607 J7.0377
G3 X-11.4052 Y-21.4975 I0.9275 J2.3529
G3 X-11.2492 Y-21.5384 I0.4318 J1.33
G3 X-11.1475 Y-21.5468 I0.0865 J0.4303
G3 X-11.0891 Y-21.5392 I-0.0108 J0.3138
G3 X-11.0346 Y-21.5195 I-0.051 J0.2255
G3 X-10.9859 Y-21.4853 I-0.0983 J0.1917
G3 X-10.9484 Y-21.4395 I-0.1521 J0.1629
G2 X-10.9426 Y-21.4336 I0.0163 J-0.0101
G2 X-10.8966 Y-21.4124 I0.0923 J-0.1399
G2 X-10.8357 Y-21.4012 I0.0866 J-0.3013
G2 X-10.7414 Y-21.4006 I0.0513 J-0.6228
G2 X-10.6447 Y-21.4136 I-0.0521 J-0.7543
G2 X-10.5441 Y-21.4403 I-0.1667 J-0.8306
G2 X-10.4433 Y-21.4816 I-0.252 J-0.758
G2 X-10.3635 Y-21.5289 I-0.2671 J-0.5426
G3 X-10.1258 Y-21.6814 I2.0148 J2.8766
G3 X-9.7947 Y-21.8628 I3.2298 J5.505
G3 X-9.4659 Y-22.0209 I3.586 J7.0347
G3 X-9.0846 Y-22.1844 I4.2279 J9.3364
G3 X-8.6974 Y-22.3326 I4.081 J10.0788
G3 X-8.3082 Y-22.4648 I3.6298 J10.0499
G3 X-7.9011 Y-22.5848 I3.0023 J9.4333
G3 X-7.5416 Y-22.673 I1.9648 J7.2327
G2 X-7.1021 Y-22.7735 I-5.4563 J-24.8826
G2 X-6.7401 Y-22.8637 I-4.0441 J-16.9986
G2 X-6.5707 Y-22.9092 I-2.937 J-11.271
G2 X-6.4619 Y-22.9406 I-1.3146 J-4.7503
G2 X-6.3532 Y-22.9762 I-0.7147 J-2.3694
G2 X-6.3358 Y-22.9838 I-0.043 J-0.1218
G3 X-6.2526 Y-23.0217 I0.3576 J0.6751
G3 X-6.0979 Y-23.0761 I1.0098 J2.6235
G3 X-5.9424 Y-23.122 I1.103 J3.4543
G3 X-5.7953 Y-23.158 I0.8218 J3.0361
G2 X-5.6663 Y-23.1925 I-0.3178 J-1.4468
G2 X-5.557 Y-23.2332 I-0.3484 J-1.1015
G2 X-5.5092 Y-23.2557 I-0.3187 J-0.7385
G2 X-5.481 Y-23.2719 I-0.1619 J-0.3164
G2 X-5.4651 Y-23.2833 I-0.09 J-0.1422
G3 X-5.4197 Y-23.3294 I0.1499 J0.1023
G3 X-5.3586 Y-23.3638 I0.1997 J0.2836
G3 X-5.3035 Y-23.3841 I0.2033 J0.4664
G3 X-5.232 Y-23.4028 I0.2699 J0.886
G3 X-5.0839 Y-23.4263 I0.2744 J1.2517
G3 X-4.9113 Y-23.4348 I0.1726 J1.7432
G3 X-4.7649 Y-23.4273 I0 J1.4412
G3 X-4.6545 Y-23.4079 I-0.0785 J0.7689
G3 X-4.5334 Y-23.3658 I-0.1782 J0.7071
G3 X-4.4075 Y-23.2973 I-0.3921 J0.8713
G3 X-4.2951 Y-23.216 I-0.7063 J1.0945
G3 X-4.1385 Y-23.0805 I-1.9377 J2.3982
G3 X-4.0088 Y-22.956 I-3.42 J3.695
G3 X-3.7812 Y-22.7254 I-11.7336 J11.8024
G2 X-3.4832 Y-22.4266 I9.9085 J-9.5859
G2 X-3.1519 Y-22.1135 I11.2053 J-11.5249
G2 X-2.8277 Y-21.8238 I10.7443 J-11.6969
G2 X-2.5342 Y-21.5766 I8.1392 J-9.3627
G2 X-2.2332 Y-21.3406 I6.0632 J-7.4267
G2 X-2.0327 Y-21.1992 I2.4149 J-3.2113
G2 X-1.9287 Y-21.1342 I1.3564 J-2.0537
G2 X-1.8635 Y-21.099 I0.4907 J-0.8301
G2 X-1.8009 Y-21.0735 I0.211 J-0.4286
G3 X-1.7143 Y-21.0603 I-0.0001 J0.2916
G3 X-1.637 Y-21.0156 I-0.0605 J0.1939
G3 X-1.5848 Y-20.9414 I-0.1458 J0.1578
G3 X-1.559 Y-20.8498 I-0.3518 J0.1488
G3 X-1.5521 Y-20.7674 I-0.6169 J0.0933
G3 X-1.5518 Y-20.7351 I-1.8414 J0.0323
G3 X-1.5544 Y-20.636 I-1.8416 J0
G3 X-1.5629 Y-20.5194 I-3.1676 J-0.1707
G3 X-1.5834 Y-20.3171 I-9.8323 J-0.894
G2 X-1.6682 Y-19.5131 I65.4089 J7.3084
G2 X-1.7215 Y-18.9269 I34.7829 J3.4544
G2 X-1.7684 Y-18.2726 I31.2397 J2.5721
G2 X-1.8036 Y-17.5865 I34.3111 J2.1032
G2 X-1.8263 Y-16.8996 I41.7564 J1.7228
G2 X-1.8441 Y-15.9533 I79.1162 J1.9617
G2 X-1.8519 Y-15.1049 I117.7021 J1.5102
G2 X-1.8549 Y-14.4575 I328.411 J1.8464
G1 Z-0.3 F30
G2 X-1.8564 Y-13.9575 I328.414 J1.199 F60
G1 Z-0.36 F30
G2 X-1.8568 Y-13.6872 I328.4154 J0.699 F60
G1 X-1.862 Y-9.7001
G3 X-1.8962 Y-9.6145 I-0.125 J-0.0002
G1 X-2.3764 Y-9.106
G1 X-2.8223 Y-8.6343
G1 X-2.8132 Y-7.7596
G3 X-2.8124 Y-7.6111 I-14.5894 J0.1485
G3 X-2.8135 Y-7.4325 I-14.5902 J0
G3 X-2.8196 Y-7.2385 I-5.0521 J-0.0619
G3 X-2.838 Y-7.014 I-3.6028 J-0.1827
G3 X-2.8661 Y-6.8302 I-2.3987 J-0.2725
G3 X-2.9084 Y-6.649 I-2.3225 J-0.447
G3 X-2.9731 Y-6.4415 I-3.1612 J-0.8709
G3 X-3.0383 Y-6.2661 I-4.2175 J-1.4689
G3 X-3.156 Y-5.9794 I-11.6054 J-4.5956
G2 X-3.319 Y-5.5883 I28.3242 J12.0378
G2 X-3.4114 Y-5.3548 I10.0781 J4.1203
G2 X-3.507 Y-5.0897 I7.0075 J2.678
G2 X-3.5711 Y-4.8849 I4.1665 J1.4154
G2 X-3.6243 Y-4.6779 I3.792 J1.0851
G2 X-3.6696 Y-4.4531 I4.4058 J1.006
G2 X-3.7013 Y-4.2514 I5.5804 J0.9795
G2 X-3.741 Y-3.9382 I13.2434 J1.8354
G3 X-3.7678 Y-3.7395 I-4.8932 J-0.5607
G3 X-3.794 Y-3.5993 I-2.3977 J-0.3742
G3 X-3.8331 Y-3.4492 I-1.8288 J-0.3967
G3 X-3.8782 Y-3.3242 I-1.2779 J-0.3904
G3 X-3.9362 Y-3.2038 I-1.1647 J-0.487
G3 X-4.0102 Y-3.0834 I-1.2524 J-0.6873
G3 X-4.0879 Y-2.979 I-1.3996 J-0.9593
G3 X-4.1987 Y-2.8489 I-2.3572 J-1.8969
G2 X-4.4046 Y-2.5866 I1.8055 J1.6291
G2 X-4.5617 Y-2.315 I1.7922 J1.2179
G2 X-4.6722 Y-2.0352 I1.7843 J0.8661
G2 X-4.7283 Y-1.7781 I1.4756 J0.4567
G2 X-4.7392 Y-1.6094 I1.2951 J0.1687
G2 X-4.7362 Y-1.5202 I1.3061 J0
G2 X-4.6973 Y-1.3124 I0.9087 J-0.0622
G2 X-4.6072 Y-1.1211 I0.7268 J-0.2256
G2 X-4.4789 Y-0.9775 I0.5416 J-0.3546
G3 X-4.3445 Y-0.8522 I-1.0144 J1.2231
G3 X-4.2339 Y-0.7209 I-0.9888 J0.9449
G3 X-4.1868 Y-0.6516 I-0.8519 J0.6305
G3 X-4.1537 Y-0.5918 I-0.5488 J0.3426
G3 X-4.1258 Y-0.5197 I-0.4187 J0.2034
G3 X-4.1161 Y-0.4519 I-0.2305 J0.0678
G1 X-4.1161 Y-0.4519
G3 X-4.1207 Y-0.4087 I-0.2033 J0
G3 X-4.1332 Y-0.3626 I-0.4587 J-0.0997
G3 X-4.1473 Y-0.3235 I-0.6832 J-0.2233
G3 X-4.1689 Y-0.2712 I-1.3708 J-0.5376
G3 X-4.2146 Y-0.1733 I-2.0617 J-0.9014
G3 X-4.2886 Y-0.0295 I-4.6658 J-2.3129
G3 X-4.4552 Y0.2662 I-6.912 J-3.698
G3 X-4.6728 Y0.6194 I-10.1244 J-5.9943
G2 X-4.8656 Y0.9263 I17.2635 J11.0611
G2 X-4.9581 Y1.0824 I4.4531 J2.7434
G2 X-5.0571 Y1.2707 I2.7672 J1.575
G2 X-5.1111 Y1.3979 I1.2676 J0.6133
G2 X-5.1502 Y1.5274 I1.0643 J0.3914
G2 X-5.175 Y1.667 I1.2039 J0.2859
G2 X-5.1848 Y1.7886 I1.6129 J0.192
G2 X-5.1896 Y2.0107 I5.1204 J0.2221
G3 X-5.1923 Y2.2391 I-9.6033 J0
G3 X-5.198 Y2.3559 I-2.4178 J-0.0575
G3 X-5.2155 Y2.498 I-1.4088 J-0.1018
G3 X-5.2407 Y2.5929 I-0.5605 J-0.0983
G3 X-5.289 Y2.6877 I-0.4032 J-0.1455
G3 X-5.3579 Y2.7649 I-0.3213 J-0.2176
G3 X-5.4253 Y2.8129 I-0.3008 J-0.3513
G3 X-5.5311 Y2.8677 I-0.5927 J-1.0139
G2 X-5.6239 Y2.9173 I0.3484 J0.7648
G2 X-5.6918 Y2.9664 I0.2977 J0.4826
G2 X-5.7127 Y2.9855 I0.2338 J0.2771
G2 X-5.6949 Y3.0108 I0.4385 J-0.2892
G2 X-5.651 Y3.0667 I1.1836 J-0.885
G2 X-5.5581 Y3.1728 I1.8664 J-1.5408
G2 X-5.4226 Y3.3126 I3.3065 J-3.0703
G2 X-5.2811 Y3.4464 I3.1776 J-3.2169
G2 X-5.1734 Y3.5385 I1.644 J-1.8143
G2 X-5.1168 Y3.582 I0.9428 J-1.1699
G2 X-5.0834 Y3.6045 I0.3193 J-0.4373
G2 X-5.0638 Y3.6153 I0.1155 J-0.1857
G3 X-4.9959 Y3.6464 I-0.0197 J0.1327
G3 X-4.962 Y3.686 I-0.1133 J0.1313
G3 X-4.9468 Y3.7145 I-0.1986 J0.1239
G3 X-4.9334 Y3.7482 I-0.4183 J0.1865
G3 X-4.915 Y3.8082 I-0.6862 J0.243
G3 X-4.8929 Y3.903 I-1.9141 J0.497
G3 X-4.8581 Y4.1006 I-3.2109 J0.6669
G3 X-4.8251 Y4.3711 I-6.0963 J0.8815
G2 X-4.8078 Y4.5432 I169.1024 J-16.8592
G2 X-4.7776 Y4.8422 I509.5947 J-51.3298
G3 X-4.7406 Y5.2106 I-257.2907 J26.0685
G3 X-4.726 Y5.3588 I-41.5255 J4.1473
G3 X-4.7043 Y5.5953 I-27.3607 J2.634
G3 X-4.6926 Y5.7413 I-10.3422 J0.9055
G3 X-4.6824 Y5.9073 I-6.7705 J0.4967
G3 X-4.6791 Y6.0187 I-2.9694 J0.1448
G3 X-4.679 Y6.0416 I-2.0321 J0.0228
G3 X-4.6812 Y6.1366 I-2.0322 J0
G3 X-4.6889 Y6.2229 I-1.0245 J-0.048
G3 X-4.7054 Y6.3098 I-0.7704 J-0.1017
G3 X-4.7295 Y6.3832 I-0.5275 J-0.132
G3 X-4.7613 Y6.4478 I-0.4726 J-0.1928
G3 X-4.8039 Y6.5112 I-0.5238 J-0.3058
G3 X-4.8393 Y6.5539 I-0.5888 J-0.4519
G3 X-4.8986 Y6.6175 I-1.5363 J-1.373
G3 X-4.908 Y6.6272 I-3.1456 J-3.0596
G3 X-4.9248 Y6.6443 I-10.1176 J-9.9015
G2 X-4.9444 Y6.6643 I28.402 J27.8898
G2 X-4.9521 Y6.6722 I4.4851 J4.398
G2 X-4.9855 Y6.7067 I3.6944 J3.6099
G2 X-5.0111 Y6.7337 I2.2852 J2.1919
G2 X-5.1919 Y6.9433 I2.4519 J2.2969
G2 X-5.3133 Y7.1143 I1.5495 J1.2285
G2 X-5.4204 Y7.3099 I1.4974 J0.9477
G2 X-5.5065 Y7.5267 I1.7455 J0.8182
G2 X-5.5687 Y7.7547 I2.2057 J0.7242
G2 X-5.625 Y8.0695 I4.0606 J0.8886
G2 X-5.659 Y8.3687 I5.8878 J0.8206
G2 X-5.6919 Y8.8308 I13.8442 J1.2188
G2 X-5.7071 Y9.3889 I10.2344 J0.5581
G2 X-5.7062 Y9.5242 I10.2497 J0
G2 X-5.6753 Y10.101 I7.1482 J-0.0943
G2 X-5.5945 Y10.6612 I5.7356 J-0.5409
G2 X-5.4841 Y11.0847 I3.4276 J-0.6674
G2 X-5.3168 Y11.48 I2.4732 J-0.8133
G2 X-5.1435 Y11.7373 I1.2505 J-0.6555
G2 X-5.0361 Y11.8479 I0.8677 J-0.7352
G2 X-4.9296 Y11.93 I0.5947 J-0.6616
G2 X-4.8119 Y11.9941 I0.4465 J-0.6802
G2 X-4.6901 Y12.0359 I0.3063 J-0.6935
G2 X-4.6472 Y12.0452 I0.1689 J-0.673
G2 X-4.5261 Y12.066 I0.8559 J-4.6353
G2 X-4.4078 Y12.0838 I1.2878 J-8.1594
G2 X-4.2369 Y12.1073 I2.4093 J-16.8472
G2 X-3.8749 Y12.1525 I3.1462 J-23.713
G2 X-3.4667 Y12.1976 I3.524 J-30.0713
G3 X-2.9459 Y12.2672 I-0.905 J8.7475
G3 X-2.5457 Y12.349 I-0.8533 J5.1934
G3 X-2.1439 Y12.4693 I-0.9938 J4.0525
G3 X-1.8231 Y12.6058 I-0.9499 J2.6764
G3 X-1.522 Y12.7842 I-1.1061 J2.211
G3 X-1.2661 Y12.9917 I-1.2389 J1.7895
G3 X-1.0487 Y13.2293 I-1.5221 J1.6108
G3 X-0.8484 Y13.5204 I-2.1174 J1.6716
G3 X-0.7506 Y13.6923 I-4.1837 J2.4919
G3 X-0.6821 Y13.8275 I-2.4651 J1.3357
G3 X-0.6184 Y13.9751 I-2.0685 J0.9801
G3 X-0.5719 Y14.1099 I-1.6484 J0.6436
G3 X-0.5366 Y14.2484 I-1.6244 J0.4877
G3 X-0.5117 Y14.3957 I-1.8272 J0.3845
G3 X-0.4984 Y14.5362 I-2.1169 J0.271
G3 X-0.4923 Y14.7103 I-3.3196 J0.2034
G2 X-0.4802 Y14.9317 I2.4239 J-0.0214
G2 X-0.4398 Y15.2298 I4.3395 J-0.4369
G2 X-0.3786 Y15.5235 I4.0863 J-0.6986
G2 X-0.3221 Y15.7087 I1.7417 J-0.4294
G3 X-0.2657 Y15.8704 I-5.7595 J2.1005
G3 X-0.2361 Y15.9672 I-1.9473 J0.6492
G3 X-0.2098 Y16.0807 I-1.2476 J0.3486
G3 X-0.2004 Y16.1646 I-0.5851 J0.108
G3 X-0.2 Y16.183 I-0.4554 J0.0185
G3 X-0.2058 Y16.2552 I-0.4558 J0
G3 X-0.2291 Y16.3379 I-0.3689 J-0.0592
G3 X-0.2639 Y16.4044 I-0.3715 J-0.1525
G3 X-0.3182 Y16.477 I-0.5836 J-0.3796
G2 X-0.3749 Y16.5457 I1.9626 J1.6766
G2 X-0.408 Y16.5896 I0.8216 J0.6542
G2 X-0.4429 Y16.643 I0.6305 J0.4502
G2 X-0.4657 Y16.686 I0.4197 J0.2503
G2 X-0.4969 Y16.78 I0.3796 J0.1778
G2 X-0.5108 Y16.9131 I0.6809 J0.1389
G2 X-0.5109 Y16.9231 I1.1872 J0.01
G2 X-0.5033 Y17.0574 I1.1872 J0
G2 X-0.4621 Y17.3355 I4.1608 J-0.4738
G2 X-0.4174 Y17.5616 I7.6835 J-1.4024
G2 X-0.3058 Y18.0684 I38.2635 J-8.1572
G3 X-0.2946 Y18.1218 I-1.6538 J0.3756
G3 X-0.2889 Y18.1563 I-0.5835 J0.1129
G3 X-0.2853 Y18.2062 I-0.4236 J0.0564
G3 X-0.2852 Y18.2101 I-0.2564 J0.0039
G3 X-0.2886 Y18.2515 I-0.2564 J0
G3 X-0.3055 Y18.3073 I-0.2173 J-0.0356
G3 X-0.3381 Y18.3572 I-0.1815 J-0.0827
G3 X-0.3821 Y18.3947 I-0.1567 J-0.1396
G3 X-0.4331 Y18.4203 I-0.1522 J-0.2392
G3 X-0.5187 Y18.4426 I-0.1434 J-0.3751
G3 X-0.6704 Y18.4573 I-0.2296 J-1.5787
G3 X-0.7825 Y18.4608 I-0.156 J-3.1904
G3 X-1.0597 Y18.4627 I-0.2772 J-20.1835
G2 X-1.2456 Y18.4653 I0 J6.542
G2 X-1.3767 Y18.4717 I0.0943 J3.3158
G2 X-1.5087 Y18.4844 I0.159 J2.3354
G2 X-1.5972 Y18.4991 I0.1405 J1.1214
G2 X-1.6799 Y18.521 I0.1563 J0.7554
G2 X-1.7296 Y18.5415 I0.1102 J0.3382
G2 X-1.769 Y18.5663 I0.11 J0.2185
G2 X-1.7929 Y18.5893 I0.0917 J0.1189
G3 X-1.8655 Y18.6594 I-0.3516 J-0.2918
G3 X-1.9496 Y18.7095 I-0.2512 J-0.3259
G3 X-2.0466 Y18.7413 I-0.2039 J-0.4589
G3 X-2.1817 Y18.7617 I-0.225 J-1.0322
G3 X-2.3125 Y18.7678 I-0.1457 J-1.7061
G3 X-2.5289 Y18.765 I-0.0427 J-4.9129
G3 X-2.7211 Y18.7559 I0.2957 J-8.3609
G3 X-3.065 Y18.7337 I1.5811 J-27.06
G3 X-3.5504 Y18.6864 I0.668 J-9.3826
G3 X-3.9455 Y18.6248 I0.7705 J-6.2364
G3 X-4.1381 Y18.5844 I0.9097 J-4.8187
G3 X-4.2932 Y18.5445 I0.7201 J-3.1217
G3 X-4.4496 Y18.4944 I0.6708 J-2.3619
G3 X-4.5624 Y18.4479 I0.4347 J-1.2151
G2 X-4.6402 Y18.4158 I-0.3846 J0.8208
G2 X-4.7784 Y18.3706 I-0.8447 J2.3486
G2 X-4.9159 Y18.333 I-0.9892 J3.3517
G2 X-5.0883 Y18.2927 I-1.3003 J5.1739
G2 X-5.4582 Y18.2242 I-1.3371 J6.1817
G2 X-5.7985 Y18.1828 I-0.8067 J5.2126
G1 X-6.4869 Y18.1217
G1 X-6.4489 Y18.3548
G1 X-6.3854 Y18.7471
G3 X-6.3838 Y18.7671 I-0.1234 J0.02
G3 X-6.5088 Y18.8921 I-0.125 J0
G1 X-7.5438 Y18.8921
G2 X-8.2781 Y18.9181 I0 J10.3504
G2 X-8.7866 Y18.9609 I1.4022 J19.716
G1 Z-0.3 F30
G2 X-9.2836 Y19.0155 I1.9108 J19.6732 F60
G1 Z-0.36 F30
G2 X-9.2915 Y19.0165 I2.4077 J19.6186 F60
G2 X-10.3011 Y19.1627 I2.9356 J23.8402
G2 X-11.3968 Y19.3671 I4.7051 J28.2575
G3 X-11.739 Y19.4258 I-1.0354 J-5.0073
G3 X-12.01 Y19.4508 I-0.419 J-3.0619
G3 X-12.2851 Y19.4467 I-0.1049 J-2.1881
G3 X-12.4693 Y19.4134 I0.0723 J-0.9275
G2 X-12.5876 Y19.3885 I-0.2327 J0.8114
G2 X-12.7863 Y19.3708 I-0.2869 J2.0982
G2 X-12.9869 Y19.3712 I-0.0953 J2.2864
G2 X-13.1368 Y19.3866 I0.0616 J1.3387
G3 X-13.3317 Y19.4065 I-0.2724 J-1.7035
G3 X-13.4794 Y19.4012 I-0.041 J-0.9121
G3 X-13.5549 Y19.3878 I0.0759 J-0.6456
G3 X-13.6165 Y19.3675 I0.0911 J-0.3804
G3 X-13.6815 Y19.3297 I0.1174 J-0.2769
G3 X-13.7323 Y19.2736 I0.1264 J-0.1656
G2 X-13.7737 Y19.2371 I-0.0809 J0.05
G2 X-13.8698 Y19.2187 I-0.086 J0.1884
G2 X-13.9781 Y19.2468 I0.0133 J0.2731
G2 X-14.0616 Y19.3132 I0.1131 J0.2278
G3 X-14.1266 Y19.3708 I-0.2121 J-0.1742
G3 X-14.2321 Y19.4272 I-0.4337 J-0.6835
G3 X-14.3336 Y19.4674 I-0.5465 J-1.2322
G3 X-14.4846 Y19.5158 I-0.9902 J-2.8314
G3 X-14.7815 Y19.5919 I-1.32 J-4.5293
G3 X-15.2353 Y19.6827 I-2.368 J-10.6595
G3 X-15.6913 Y19.7562 I-2.4755 J-13.9029
G3 X-16.2121 Y19.8239 I-2.617 J-18.1114
G3 X-16.7594 Y19.8788 I-2.146 J-18.6109
G3 X-17.276 Y19.915 I-1.4161 J-16.5333
G2 X-17.6822 Y19.9421 I0.8932 J16.4536
G2 X-17.9668 Y19.9696 I0.6458 J8.1641
G2 X-18.264 Y20.011 I0.6942 J6.0708
G2 X-18.495 Y20.0563 I0.6175 J3.7554
G2 X-18.7211 Y20.1167 I0.7247 J3.1687
G2 X-18.9288 Y20.189 I0.8435 J2.7576
G2 X-19.1206 Y20.2718 I1.1011 J2.8128
G2 X-19.3413 Y20.3844 I1.7974 J3.7952
G3 X-19.4109 Y20.4116 I-0.1389 J-0.2536
G3 X-19.5429 Y20.438 I-0.3629 J-1.4699
G3 X-19.6674 Y20.4543 I-0.4237 J-2.7458
G3 X-19.8517 Y20.4715 I-0.6674 J-6.1609
G3 X-20.2405 Y20.4936 I-0.713 J-9.118
G3 X-20.7061 Y20.5019 I-0.4656 J-13.1276
G2 X-21.1094 Y20.5047 I0 J28.6232
G2 X-21.316 Y20.5104 I0.1072 J7.6057
G2 X-21.5564 Y20.5266 I0.1916 J4.6418
G2 X-21.7115 Y20.5472 I0.1883 J2.0155
G2 X-21.8614 Y20.5805 I0.2678 J1.5559
G2 X-22.0045 Y20.6275 I0.4029 J1.4685
G2 X-22.124 Y20.6782 I0.6707 J1.7461
G2 X-22.3222 Y20.7758 I2.1975 J4.7151
G3 X-22.4513 Y20.8417 I-5.205 J-10.0323
G3 X-22.5235 Y20.8769 I-1.5177 J-3.0195
G3 X-22.6241 Y20.9218 I-1.0441 J-2.2065
G3 X-22.7036 Y20.9523 I-0.5421 J-1.2934
G3 X-22.8872 Y20.9989 I-0.3561 J-1.0194
G3 X-23.0752 Y21.0124 I-0.1706 J-1.0539
G3 X-23.2583 Y20.9977 I0.0233 J-1.4321
G3 X-23.5526 Y20.9436 I0.5818 J-3.9946
G3 X-23.685 Y20.9128 I1.5197 J-6.8351
G3 X-23.8795 Y20.8643 I3.6354 J-14.9737
G3 X-24.0229 Y20.827 I5.7017 J-22.2191
G3 X-24.2949 Y20.7548 I21.1871 J-80.4042
G2 X-24.3289 Y20.7521 I-0.0243 J0.091
G2 X-24.3534 Y20.7596 I0.0068 J0.0656
G2 X-24.3865 Y20.7845 I0.0643 J0.1197
G2 X-24.4514 Y20.8654 I0.3909 J0.3804
G2 X-24.509 Y20.9651 I0.8395 J0.5516
G2 X-24.5934 Y21.1485 I2.5585 J1.2887
G2 X-24.6655 Y21.3319 I4.236 J1.7717
G2 X-24.7688 Y21.6244 I10.5154 J3.8769
G3 X-24.8109 Y21.7101 I-0.3462 J-0.1169
G3 X-24.873 Y21.7776 I-0.2462 J-0.164
G3 X-24.9536 Y21.8251 I-0.2097 J-0.2636
G3 X-25.0624 Y21.8593 I-0.2452 J-0.5911
G3 X-25.1671 Y21.8764 I-0.2164 J-0.9923
G3 X-25.336 Y21.89 I-0.3102 J-2.8039
G3 X-25.4877 Y21.8952 I-0.2376 J-4.7381
G3 X-25.7508 Y21.8975 I-0.2631 J-14.522
G2 X-26.0637 Y21.9054 I0 J6.2007
G2 X-26.2616 Y21.9231 I0.1296 J2.5638
G2 X-26.4878 Y21.9641 I0.2867 J2.2294
G2 X-26.7304 Y22.0331 I0.6118 J2.6102
G2 X-26.9697 Y22.1232 I1.1455 J3.4071
G2 X-27.3343 Y22.2855 I3.3094 J7.9273
G2 X-27.6438 Y22.4365 I6.0549 J12.7967
G2 X-28.2314 Y22.737 I23.2249 J46.1465
G3 X-28.4158 Y22.8145 I-0.5687 J-1.0949
G3 X-28.6666 Y22.8804 I-0.6771 J-2.0659
G3 X-28.9086 Y22.9163 I-0.4788 J-2.3943
G3 X-29.1303 Y22.9255 I-0.1925 J-1.9751
G3 X-29.2656 Y22.9175 I0.0227 J-1.5414
G3 X-29.37 Y22.9003 I0.0898 J-0.8711
G3 X-29.4833 Y22.8624 I0.1331 J-0.5856
G3 X-29.5645 Y22.8076 I0.1184 J-0.2631
G2 X-29.7467 Y22.6545 I-1.2718 J1.3278
G2 X-30.0093 Y22.4809 I-1.8565 J2.5231
G2 X-30.2726 Y22.3395 I-1.8483 J3.1274
G2 X-30.5483 Y22.2195 I-1.6042 J3.3081
G2 X-30.8316 Y22.1247 I-1.1535 J2.9767
G2 X-31.043 Y22.0789 I-0.4707 J1.6613
G2 X-31.15 Y22.0676 I-0.1789 J1.1775
G2 X-31.2242 Y22.0676 I-0.0372 J0.6157
G2 X-31.2937 Y22.0779 I0.0239 J0.3974
G2 X-31.3239 Y22.0895 I0.0298 J0.1237
G3 X-31.3851 Y22.1159 I-0.1888 J-0.3529
G3 X-31.5042 Y22.1517 I-0.6016 J-1.7881
G3 X-31.6176 Y22.1795 I-0.8345 J-3.1545
G3 X-31.7803 Y22.2143 I-1.4929 J-6.5885
G3 X-32.1247 Y22.2769 I-1.8879 J-9.3998
G3 X-32.5211 Y22.3351 I-2.0287 J-12.4373
G3 X-32.8517 Y22.3755 I-2.5675 J-19.656
G3 X-33.0446 Y22.3945 I-0.7476 J-6.5828
G3 X-33.2663 Y22.4076 I-0.3706 J-4.4095
G3 X-33.4317 Y22.4074 I-0.0806 J-2.3935
G3 X-33.5982 Y22.3947 I0.0725 J-2.0432
G3 X-33.7652 Y22.3682 I0.2455 J-2.0867
G3 X-33.9091 Y22.335 I0.4928 J-2.4613
G3 X-34.1178 Y22.2758 I1.4136 J-5.3903
G3 X-34.4923 Y22.1547 I3.2917 J-10.817
G3 X-34.7444 Y22.061 I1.6906 J-4.9321
G3 X-35.0062 Y21.9439 I1.3837 J-3.4461
G3 X-35.1964 Y21.8372 I0.9259 J-1.8732
G3 X-35.3748 Y21.7075 I0.9054 J-1.4331
G3 X-35.5199 Y21.5679 I0.8871 J-1.0667
G3 X-35.6373 Y21.4181 I1.0551 J-0.9477
G3 X-35.7503 Y21.2299 I1.6019 J-1.0903
G3 X-35.7973 Y21.136 I2.3067 J-1.2133
G3 X-35.8288 Y21.0647 I1.2389 J-0.5892
G3 X-35.8627 Y20.9714 I1.211 J-0.4937
G3 X-35.8916 Y20.8695 I1.4365 J-0.462
G3 X-35.9327 Y20.6502 I1.9475 J-0.4786
G3 X-35.9728 Y20.2509 I6.7353 J-0.8783
G3 X-35.9951 Y19.8532 I13.4763 J-0.9526
G3 X-36.0227 Y19.0392 I56.8248 J-2.3359
G3 X-36.0377 Y18.4115 I110.4807 J-2.9576
G3 X-36.0682 Y16.8805 I657.8465 J-13.8711
G2 X-36.085 Y16.0595 I-245.4385 J4.604
G1 Z-0.3 F30
G2 X-36.0965 Y15.5596 I-245.4217 J5.4251 F60
G1 Z-0.36 F30
G2 X-36.1031 Y15.2918 I-245.4101 J5.9249 F60
G2 X-36.1488 Y13.6874 I-250.3536 J6.3176
G2 X-36.2068 Y12.0838 I-177.8426 J5.6286
G2 X-36.2409 Y11.422 I-30.4224 J1.2376
G3 X-36.2839 Y10.5738 I35.924 J-2.2453
G3 X-36.3325 Y9.0655 I113.8437 J-4.4224
G3 X-36.3632 Y7.6316 I172.7487 J-4.42
G3 X-36.391 Y5.6788 I320.4202 J-5.5375
G3 X-36.4174 Y1.8805 I448.125 J-5.0131
G3 X-36.4201 Y-0.0779 I722.4965 J-1.9585
G3 X-36.4144 Y-2.9421 I722.4991 J0
G1 Z-0.48 F30
G3 X-36.3799 Y-7.7644 I754.6384 J2.9915 F60
G3 X-36.3211 Y-11.9456 I567.326 J5.8746
G3 X-36.2778 Y-14.0949 I443.312 J7.8585
G3 X-36.2339 Y-15.8103 I282.3894 J6.3756
G3 X-36.1744 Y-17.6145 I209.4819 J6.003
G3 X-36.1211 Y-18.8347 I95.8086 J3.5717
G1 X-35.9883 Y-21.4914
G3 X-35.8617 Y-21.6101 I0.1248 J0.0062
G1 X-35.5879 Y-21.6064
G3 X-35.5045 Y-21.6044 I-0.0591 J4.2939
G3 X-35.1119 Y-21.5906 I-3.2504 J97.9113
G3 X-34.7429 Y-21.5766 I-8.1231 J218.293
G3 X-34.1227 Y-21.5521 I-23.9964 J616.7945
G3 X-32.9242 Y-21.5036 I-41.3031 J1034.8546
G3 X-31.1783 Y-21.4312 I-90.2069 J2196.3079
G3 X-30.7245 Y-21.4122 I-103.5986 J2474.3885
G1 Z-0.3 F30
G3 X-30.2249 Y-21.3911 I-104.0524 J2474.3694 F60
G1 Z-0.48 F30
G3 X-27.1056 Y-21.2573 I-104.552 J2474.3484 F60
G3 X-25.4884 Y-21.1836 I-16.976 J390.0972
G2 X-24.6705 Y-21.1488 I3.809 J-79.9011
G2 X-23.6432 Y-21.1145 I4.7126 J-125.9412
G2 X-22.6159 Y-21.0892 I3.2969 J-112.6979
G2 X-21.9928 Y-21.0813 I0.8362 J-41.5312
G2 X-21.4376 Y-21.0806 I0.3666 J-71.464
G2 X-21.1722 Y-21.0835 I-0.0433 J-16.419
G2 X-20.8578 Y-21.0949 I-0.1688 J-8.9778
G2 X-20.6912 Y-21.1092 I-0.141 J-2.6159
G2 X-20.5328 Y-21.1367 I-0.174 J-1.4722
G2 X-20.4401 Y-21.1661 I-0.1352 J-0.5877
G2 X-20.3701 Y-21.2014 I-0.187 J-0.4581
G2 X-20.2757 Y-21.2668 I-0.4964 J-0.8164
G3 X-20.1839 Y-21.3336 I0.9322 J1.1851
G3 X-20.1055 Y-21.3808 I0.514 J0.7657
G3 X-20.0161 Y-21.4217 I0.3692 J0.689
G3 X-19.9278 Y-21.4487 I0.2395 J0.6246
G3 X-19.8369 Y-21.4634 I0.1537 J0.6626
G3 X-19.7364 Y-21.4667 I0.0781 J0.8426
G3 X-19.6432 Y-21.46 I-0.0271 J1.025
G3 X-19.526 Y-21.4421 I-0.205 J1.7355
G2 X-19.3799 Y-21.4279 I0.153 J-0.8153
G2 X-19.1326 Y-21.44 I0.0178 J-2.1673
G2 X-18.8841 Y-21.4779 I-0.2931 J-2.7526
G2 X-18.625 Y-21.5413 I-0.607 J-3.0425
G3 X-18.3762 Y-21.6083 I1.8037 J6.2045
G3 X-18.1278 Y-21.6646 I1.5175 J6.121
G3 X-17.8755 Y-21.7088 I0.8882 J4.3229
G3 X-17.7578 Y-21.7174 I0.1177 J0.8086
G3 X-17.4857 Y-21.6622 I0 J0.6985
G3 X-17.2334 Y-21.4978 I-0.3325 J0.7861
G3 X-17.0559 Y-21.2548 I-0.5605 J0.596
G3 X-16.9967 Y-20.9942 I-0.5451 J0.2607
G2 X-16.9883 Y-20.8358 I1.4968 J0
G2 X-16.9711 Y-20.7442 I0.5768 J-0.0614
G2 X-16.9356 Y-20.6546 I0.4241 J-0.1159
G2 X-16.881 Y-20.5741 I0.3948 J-0.2088
G2 X-16.807 Y-20.501 I0.4574 J-0.389
G2 X-16.67 Y-20.4003 I0.9214 J-1.1105
G2 X-16.533 Y-20.318 I1.2836 J-1.9821
G2 X-16.2828 Y-20.1854 I3.4799 J-6.2653
G2 X-16.1465 Y-20.1171 I12.3241 J-24.414
G2 X-16.0743 Y-20.0816 I3.4316 J-6.8932
G2 X-15.9773 Y-20.0359 I2.2786 J-4.6996
G2 X-15.9111 Y-20.0066 I1.0243 J-2.228
G2 X-15.768 Y-19.9543 I0.58 J-1.3667
G2 X-15.6722 Y-19.9323 I0.1991 J-0.6464
G2 X-15.5752 Y-19.9248 I0.0975 J-0.6311
G2 X-15.4375 Y-19.9327 I0.0009 J-1.1851
G2 X-15.3327 Y-19.9479 I-0.2205 J-1.898
G2 X-15.0696 Y-19.9965 I-1.967 J-11.3837
G2 X-14.8392 Y-20.047 I-1.0477 J-5.3253
G2 X-14.647 Y-20.0988 I-0.9188 J-3.792
G2 X-14.4338 Y-20.1682 I-1.2288 J-4.1368
G2 X-14.1587 Y-20.272 I-2.4504 J-6.9116
G2 X-13.8857 Y-20.3857 I-3.9909 J-9.9687
G2 X-13.4563 Y-20.576 I-10.6765 J-24.6759
G2 X-13.0754 Y-20.7509 I-18.1303 J-39.9726
G2 X-12.3987 Y-21.0679 I-58.7207 J-126.2452
G3 X-12.0234 Y-21.2423 I15.5532 J32.9745
G3 X-11.798 Y-21.3429 I5.3659 J11.7193
G3 X-11.5518 Y-21.4449 I3.0607 J7.0377
G3 X-11.4052 Y-21.4975 I0.9275 J2.3529
G3 X-11.2492 Y-21.5384 I0.4318 J1.33
G3 X-11.1475 Y-21.5468 I0.0865 J0.4303
G3 X-11.0891 Y-21.5392 I-0.0108 J0.3138
G3 X-11.0346 Y-21.5195 I-0.051 J0.2255
G3 X-10.9859 Y-21.4853 I-0.0983 J0.1917
G3 X-10.9484 Y-21.4395 I-0.1521 J0.1629
G2 X-10.9426 Y-21.4336 I0.0163 J-0.0101
G2 X-10.8966 Y-21.4124 I0.0923 J-0.1399
G2 X-10.8357 Y-21.4012 I0.0866 J-0.3013
G2 X-10.7414 Y-21.4006 I0.0513 J-0.6228
G2 X-10.6447 Y-21.4136 I-0.0521 J-0.7543
G2 X-10.5441 Y-21.4403 I-0.1667 J-0.8306
G2 X-10.4433 Y-21.4816 I-0.252 J-0.758
G2 X-10.3635 Y-21.5289 I-0.2671 J-0.5426
G3 X-10.1258 Y-21.6814 I2.0148 J2.8766
G3 X-9.7947 Y-21.8628 I3.2298 J5.505
G3 X-9.4659 Y-22.0209 I3.586 J7.0347
G3 X-9.0846 Y-22.1844 I4.2279 J9.3364
G3 X-8.6974 Y-22.3326 I4.081 J10.0788
G3 X-8.3082 Y-22.4648 I3.6298 J10.0499
G3 X-7.9011 Y-22.5848 I3.0023 J9.4333
G3 X-7.5416 Y-22.673 I1.9648 J7.2327
G2 X-7.1021 Y-22.7735 I-5.4563 J-24.8826
G2 X-6.7401 Y-22.8637 I-4.0441 J-16.9986
G2 X-6.5707 Y-22.9092 I-2.937 J-11.271
G2 X-6.4619 Y-22.9406 I-1.3146 J-4.7503
G2 X-6.3532 Y-22.9762 I-0.7147 J-2.3694
G2 X-6.3358 Y-22.9838 I-0.043 J-0.1218
G3 X-6.2526 Y-23.0217 I0.3576 J0.6751
G3 X-6.0979 Y-23.0761 I1.0098 J2.6235
G3 X-5.9424 Y-23.122 I1.103 J3.4543
G3 X-5.7953 Y-23.158 I0.8218 J3.0361
G2 X-5.6663 Y-23.1925 I-0.3178 J-1.4468
G2 X-5.557 Y-23.2332 I-0.3484 J-1.1015
G2 X-5.5092 Y-23.2557 I-0.3187 J-0.7385
G2 X-5.481 Y-23.2719 I-0.1619 J-0.3164
G2 X-5.4651 Y-23.2833 I-0.09 J-0.1422
G3 X-5.4197 Y-23.3294 I0.1499 J0.1023
G3 X-5.3586 Y-23.3638 I0.1997 J0.2836
G3 X-5.3035 Y-23.3841 I0.2033 J0.4664
G3 X-5.232 Y-23.4028 I0.2699 J0.886
G3 X-5.0839 Y-23.4263 I0.2744 J1.2517
G3 X-4.9113 Y-23.4348 I0.1726 J1.7432
G3 X-4.7649 Y-23.4273 I0 J1.4412
G3 X-4.6545 Y-23.4079 I-0.0785 J0.7689
G3 X-4.5334 Y-23.3658 I-0.1782 J0.7071
G3 X-4.4075 Y-23.2973 I-0.3921 J0.8713
G3 X-4.2951 Y-23.216 I-0.7063 J1.0945
G3 X-4.1385 Y-23.0805 I-1.9377 J2.3982
G3 X-4.0088 Y-22.956 I-3.42 J3.695
G3 X-3.7812 Y-22.7254 I-11.7336 J11.8024
G2 X-3.4832 Y-22.4266 I9.9085 J-9.5859
G2 X-3.1519 Y-22.1135 I11.2053 J-11.5249
G2 X-2.8277 Y-21.8238 I10.7443 J-11.6969
G2 X-2.5342 Y-21.5766 I8.1392 J-9.3627
G2 X-2.2332 Y-21.3406 I6.0632 J-7.4267
G2 X-2.0327 Y-21.1992 I2.4149 J-3.2113
G2 X-1.9287 Y-21.1342 I1.3564 J-2.0537
G2 X-1.8635 Y-21.099 I0.4907 J-0.8301
G2 X-1.8009 Y-21.0735 I0.211 J-0.4286
G3 X-1.7143 Y-21.0603 I-0.0001 J0.2916
G3 X-1.637 Y-21.0156 I-0.0605 J0.1939
G3 X-1.5848 Y-20.9414 I-0.1458 J0.1578
G3 X-1.559 Y-20.8498 I-0.3518 J0.1488
G3 X-1.5521 Y-20.7674 I-0.6169 J0.0933
G3 X-1.5518 Y-20.7351 I-1.8414 J0.0323
G3 X-1.5544 Y-20.636 I-1.8416 J0
G3 X-1.5629 Y-20.5194 I-3.1676 J-0.1707
G3 X-1.5834 Y-20.3171 I-9.8323 J-0.894
G2 X-1.6682 Y-19.5131 I65.4089 J7.3084
G2 X-1.7215 Y-18.9269 I34.7829 J3.4544
G2 X-1.7684 Y-18.2726 I31.2397 J2.5721
G2 X-1.8036 Y-17.5865 I34.3111 J2.1032
G2 X-1.8263 Y-16.8996 I41.7564 J1.7228
G2 X-1.8441 Y-15.9533 I79.1162 J1.9617
G2 X-1.8519 Y-15.1049 I117.7021 J1.5102
G2 X-1.8549 Y-14.4575 I328.411 J1.8464
G1 Z-0.3 F30
G2 X-1.8564 Y-13.9575 I328.414 J1.199 F60
G1 Z-0.48 F30
G2 X-1.8568 Y-13.6872 I328.4154 J0.699 F60
G1 X-1.862 Y-9.7001
G3 X-1.8962 Y-9.6145 I-0.125 J-0.0002
G1 X-2.3764 Y-9.106
G1 X-2.8223 Y-8.6343
G1 X-2.8132 Y-7.7596
G3 X-2.8124 Y-7.6111 I-14.5894 J0.1485
G3 X-2.8135 Y-7.4325 I-14.5902 J0
G3 X-2.8196 Y-7.2385 I-5.0521 J-0.0619
G3 X-2.838 Y-7.014 I-3.6028 J-0.1827
G3 X-2.8661 Y-6.8302 I-2.3987 J-0.2725
G3 X-2.9084 Y-6.649 I-2.3225 J-0.447
G3 X-2.9731 Y-6.4415 I-3.1612 J-0.8709
G3 X-3.0383 Y-6.2661 I-4.2175 J-1.4689
G3 X-3.156 Y-5.9794 I-11.6054 J-4.5956
G2 X-3.319 Y-5.5883 I28.3242 J12.0378
G2 X-3.4114 Y-5.3548 I10.0781 J4.1203
G2 X-3.507 Y-5.0897 I7.0075 J2.678
G2 X-3.5711 Y-4.8849 I4.1665 J1.4154
G2 X-3.6243 Y-4.6779 I3.792 J1.0851
G2 X-3.6696 Y-4.4531 I4.4058 J1.006
G2 X-3.7013 Y-4.2514 I5.5804 J0.9795
G2 X-3.741 Y-3.9382 I13.2434 J1.8354
G3 X-3.7678 Y-3.7395 I-4.8932 J-0.5607
G3 X-3.794 Y-3.5993 I-2.3977 J-0.3742
G3 X-3.8331 Y-3.4492 I-1.8288 J-0.3967
G3 X-3.8782 Y-3.3242 I-1.2779 J-0.3904
G3 X-3.9362 Y-3.2038 I-1.1647 J-0.487
G3 X-4.0102 Y-3.0834 I-1.2524 J-0.6873
G3 X-4.0879 Y-2.979 I-1.3996 J-0.9593
G3 X-4.1987 Y-2.8489 I-2.3572 J-1.8969
G2 X-4.4046 Y-2.5866 I1.8055 J1.6291
G2 X-4.5617 Y-2.315 I1.7922 J1.2179
G2 X-4.6722 Y-2.0352 I1.7843 J0.8661
G2 X-4.7283 Y-1.7781 I1.4756 J0.4567
G2 X-4.7392 Y-1.6094 I1.2951 J0.1687
G2 X-4.7362 Y-1.5202 I1.3061 J0
G2 X-4.6973 Y-1.3124 I0.9087 J-0.0622
G2 X-4.6072 Y-1.1211 I0.7268 J-0.2256
G2 X-4.4789 Y-0.9775 I0.5416 J-0.3546
G3 X-4.3445 Y-0.8522 I-1.0144 J1.2231
G3 X-4.2339 Y-0.7209 I-0.9888 J0.9449
G3 X-4.1868 Y-0.6516 I-0.8519 J0.6305
G3 X-4.1537 Y-0.5918 I-0.5488 J0.3426
G3 X-4.1258 Y-0.5197 I-0.4187 J0.2034
G3 X-4.1161 Y-0.4519 I-0.2305 J0.0678
G1 X-4.1161 Y-0.4519
G3 X-4.1207 Y-0.4087 I-0.2033 J0
G3 X-4.1332 Y-0.3626 I-0.4587 J-0.0997
G3 X-4.1473 Y-0.3235 I-0.6832 J-0.2233
G3 X-4.1689 Y-0.2712 I-1.3708 J-0.5376
G3 X-4.2146 Y-0.1733 I-2.0617 J-0.9014
G3 X-4.2886 Y-0.0295 I-4.6658 J-2.3129
G3 X-4.4552 Y0.2662 I-6.912 J-3.698
G3 X-4.6728 Y0.6194 I-10.1244 J-5.9943
G2 X-4.8656 Y0.9263 I17.2635 J11.0611
G2 X-4.9581 Y1.0824 I4.4531 J2.7434
G2 X-5.0571 Y1.2707 I2.7672 J1.575
G2 X-5.1111 Y1.3979 I1.2676 J0.6133
G2 X-5.1502 Y1.5274 I1.0643 J0.3914
G2 X-5.175 Y1.667 I1.2039 J0.2859
G2 X-5.1848 Y1.7886 I1.6129 J0.192
G2 X-5.1896 Y2.0107 I5.1204 J0.2221
G3 X-5.1923 Y2.2391 I-9.6033 J0
G3 X-5.198 Y2.3559 I-2.4178 J-0.0575
G3 X-5.2155 Y2.498 I-1.4088 J-0.1018
G3 X-5.2407 Y2.5929 I-0.5605 J-0.0983
G3 X-5.289 Y2.6877 I-0.4032 J-0.1455
G3 X-5.3579 Y2.7649 I-0.3213 J-0.2176
G3 X-5.4253 Y2.8129 I-0.3008 J-0.3513
G3 X-5.5311 Y2.8677 I-0.5927 J-1.0139
G2 X-5.6239 Y2.9173 I0.3484 J0.7648
G2 X-5.6918 Y2.9664 I0.2977 J0.4826
G2 X-5.7127 Y2.9855 I0.2338 J0.2771
G2 X-5.6949 Y3.0108 I0.4385 J-0.2892
G2 X-5.651 Y3.0667 I1.1836 J-0.885
G2 X-5.5581 Y3.1728 I1.8664 J-1.5408
G2 X-5.4226 Y3.3126 I3.3065 J-3.0703
G2 X-5.2811 Y3.4464 I3.1776 J-3.2169
G2 X-5.1734 Y3.5385 I1.644 J-1.8143
G2 X-5.1168 Y3.582 I0.9428 J-1.1699
G2 X-5.0834 Y3.6045 I0.3193 J-0.4373
G2 X-5.0638 Y3.6153 I0.1155 J-0.1857
G3 X-4.9959 Y3.6464 I-0.0197 J0.1327
G3 X-4.962 Y3.686 I-0.1133 J0.1313
G3 X-4.9468 Y3.7145 I-0.1986 J0.1239
G3 X-4.9334 Y3.7482 I-0.4183 J0.1865
G3 X-4.915 Y3.8082 I-0.6862 J0.243
G3 X-4.8929 Y3.903 I-1.9141 J0.497
G3 X-4.8581 Y4.1006 I-3.2109 J0.6669
G3 X-4.8251 Y4.3711 I-6.0963 J0.8815
G2 X-4.8078 Y4.5432 I169.1024 J-16.8592
G2 X-4.7776 Y4.8422 I509.5947 J-51.3298
G3 X-4.7406 Y5.2106 I-257.2907 J26.0685
G3 X-4.726 Y5.3588 I-41.5255 J4.1473
G3 X-4.7043 Y5.5953 I-27.3607 J2.634
G3 X-4.6926 Y5.7413 I-10.3422 J0.9055
G3 X-4.6824 Y5.9073 I-6.7705 J0.4967
G3 X-4.6791 Y6.0187 I-2.9694 J0.1448
G3 X-4.679 Y6.0416 I-2.0321 J0.0228
G3 X-4.6812 Y6.1366 I-2.0322 J0
G3 X-4.6889 Y6.2229 I-1.0245 J-0.048
G3 X-4.7054 Y6.3098 I-0.7704 J-0.1017
G3 X-4.7295 Y6.3832 I-0.5275 J-0.132
G3 X-4.7613 Y6.4478 I-0.4726 J-0.1928
G3 X-4.8039 Y6.5112 I-0.5238 J-0.3058
G3 X-4.8393 Y6.5539 I-0.5888 J-0.4519
G3 X-4.8986 Y6.6175 I-1.5363 J-1.373
G3 X-4.908 Y6.6272 I-3.1456 J-3.0596
G3 X-4.9248 Y6.6443 I-10.1176 J-9.9015
G2 X-4.9444 Y6.6643 I28.402 J27.8898
G2 X-4.9521 Y6.6722 I4.4851 J4.398
G2 X-4.9855 Y6.7067 I3.6944 J3.6099
G2 X-5.0111 Y6.7337 I2.2852 J2.1919
G2 X-5.1919 Y6.9433 I2.4519 J2.2969
G2 X-5.3133 Y7.1143 I1.5495 J1.2285
G2 X-5.4204 Y7.3099 I1.4974 J0.9477
G2 X-5.5065 Y7.5267 I1.7455 J0.8182
G2 X-5.5687 Y7.7547 I2.2057 J0.7242
G2 X-5.625 Y8.0695 I4.0606 J0.8886
G2 X-5.659 Y8.3687 I5.8878 J0.8206
G2 X-5.6919 Y8.8308 I13.8442 J1.2188
G2 X-5.7071 Y9.3889 I10.2344 J0.5581
G2 X-5.7062 Y9.5242 I10.2497 J0
G2 X-5.6753 Y10.101 I7.1482 J-0.0943
G2 X-5.5945 Y10.6612 I5.7356 J-0.5409
G2 X-5.4841 Y11.0847 I3.4276 J-0.6674
G2 X-5.3168 Y11.48 I2.4732 J-0.8133
G2 X-5.1435 Y11.7373 I1.2505 J-0.6555
G2 X-5.0361 Y11.8479 I0.8677 J-0.7352
G2 X-4.9296 Y11.93 I0.5947 J-0.6616
G2 X-4.8119 Y11.9941 I0.4465 J-0.6802
G2 X-4.6901 Y12.0359 I0.3063 J-0.6935
G2 X-4.6472 Y12.0452 I0.1689 J-0.673
G2 X-4.5261 Y12.066 I0.8559 J-4.6353
G2 X-4.4078 Y12.0838 I1.2878 J-8.1594
G2 X-4.2369 Y12.1073 I2.4093 J-16.8472
G2 X-3.8749 Y12.1525 I3.1462 J-23.713
G2 X-3.4667 Y12.1976 I3.524 J-30.0713
G3 X-2.9459 Y12.2672 I-0.905 J8.7475
G3 X-2.5457 Y12.349 I-0.8533 J5.1934
G3 X-2.1439 Y12.4693 I-0.9938 J4.0525
G3 X-1.8231 Y12.6058 I-0.9499 J2.6764
G3 X-1.522 Y12.7842 I-1.1061 J2.211
G3 X-1.2661 Y12.9917 I-1.2389 J1.7895
G3 X-1.0487 Y13.2293 I-1.5221 J1.6108
G3 X-0.8484 Y13.5204 I-2.1174 J1.6716
G3 X-0.7506 Y13.6923 I-4.1837 J2.4919
G3 X-0.6821 Y13.8275 I-2.4651 J1.3357
G3 X-0.6184 Y13.9751 I-2.0685 J0.9801
G3 X-0.5719 Y14.1099 I-1.6484 J0.6436
G3 X-0.5366 Y14.2484 I-1.6244 J0.4877
G3 X-0.5117 Y14.3957 I-1.8272 J0.3845
G3 X-0.4984 Y14.5362 I-2.1169 J0.271
G3 X-0.4923 Y14.7103 I-3.3196 J0.2034
G2 X-0.4802 Y14.9317 I2.4239 J-0.0214
G2 X-0.4398 Y15.2298 I4.3395 J-0.4369
G2 X-0.3786 Y15.5235 I4.0863 J-0.6986
G2 X-0.3221 Y15.7087 I1.7417 J-0.4294
G3 X-0.2657 Y15.8704 I-5.7595 J2.1005
G3 X-0.2361 Y15.9672 I-1.9473 J0.6492
G3 X-0.2098 Y16.0807 I-1.2476 J0.3486
G3 X-0.2004 Y16.1646 I-0.5851 J0.108
G3 X-0.2 Y16.183 I-0.4554 J0.0185
G3 X-0.2058 Y16.2552 I-0.4558 J0
G3 X-0.2291 Y16.3379 I-0.3689 J-0.0592
G3 X-0.2639 Y16.4044 I-0.3715 J-0.1525
G3 X-0.3182 Y16.477 I-0.5836 J-0.3796
G2 X-0.3749 Y16.5457 I1.9626 J1.6766
G2 X-0.408 Y16.5896 I0.8216 J0.6542
G2 X-0.4429 Y16.643 I0.6305 J0.4502
G2 X-0.4657 Y16.686 I0.4197 J0.2503
G2 X-0.4969 Y16.78 I0.3796 J0.1778
G2 X-0.5108 Y16.9131 I0.6809 J0.1389
G2 X-0.5109 Y16.9231 I1.1872 J0.01
G2 X-0.5033 Y17.0574 I1.1872 J0
G2 X-0.4621 Y17.3355 I4.1608 J-0.4738
G2 X-0.4174 Y17.5616 I7.6835 J-1.4024
G2 X-0.3058 Y18.0684 I38.2635 J-8.1572
G3 X-0.2946 Y18.1218 I-1.6538 J0.3756
G3 X-0.2889 Y18.1563 I-0.5835 J0.1129
G3 X-0.2853 Y18.2062 I-0.4236 J0.0564
G3 X-0.2852 Y18.2101 I-0.2564 J0.0039
G3 X-0.2886 Y18.2515 I-0.2564 J0
G3 X-0.3055 Y18.3073 I-0.2173 J-0.0356
G3 X-0.3381 Y18.3572 I-0.1815 J-0.0827
G3 X-0.3821 Y18.3947 I-0.1567 J-0.1396
G3 X-0.4331 Y18.4203 I-0.1522 J-0.2392
G3 X-0.5187 Y18.4426 I-0.1434 J-0.3751
G3 X-0.6704 Y18.4573 I-0.2296 J-1.5787
G3 X-0.7825 Y18.4608 I-0.156 J-3.1904
G3 X-1.0597 Y18.4627 I-0.2772 J-20.1835
G2 X-1.2456 Y18.4653 I0 J6.542
G2 X-1.3767 Y18.4717 I0.0943 J3.3158
G2 X-1.5087 Y18.4844 I0.159 J2.3354
G2 X-1.5972 Y18.4991 I0.1405 J1.1214
G2 X-1.6799 Y18.521 I0.1563 J0.7554
G2 X-1.7296 Y18.5415 I0.1102 J0.3382
G2 X-1.769 Y18.5663 I0.11 J0.2185
G2 X-1.7929 Y18.5893 I0.0917 J0.1189
